(TEST)
(4TH AXIS TEST)
(T11  D=3.325 CR=0. TAPER=30DEG - ZMIN=-1. - CHAMFER MILL)
G90 G94 G91.1 G40 G49 G17
G21
G28 G91 Z0.
G90

(ENGRAVE2)
M5
M9
T11 M6
S5000 M3
G54
M8
G0 A170.974 Y-3.052
G43 Z5. H0
G1 Z0.001 F1000.
A168.803 Y-2.578 Z-0.82
A166.632 Y-3.052 Z0.001
A168.803 Y-2.578 Z-0.82
A168.799 Y0.365 Z-0.821
A168.786 Y0.407 Z-0.826
A168.764 Y0.449 Z-0.834
A168.734 Y0.491 Z-0.846
A168.695 Y0.533 Z-0.86
A168.648 Y0.576 Z-0.878
A168.592 Y0.618 Z-0.899
A168.527 Y0.66 Z-0.924
A168.454 Y0.702 Z-0.952
A168.372 Y0.745 Z-0.983
A168.454 Y0.787 Z-0.952
A168.527 Y0.829 Z-0.924
A168.592 Y0.871 Z-0.899
A168.648 Y0.914 Z-0.878
A168.695 Y0.956 Z-0.86
A168.734 Y0.998 Z-0.846
A168.764 Y1.04 Z-0.834
A168.786 Y1.083 Z-0.826
A168.799 Y1.125 Z-0.821
A168.803 Y1.167 Z-0.82
Y3.633
A166.632 Y4.106 Z0.001
A168.803 Y3.633 Z-0.82
A170.974 Y4.106 Z0.001
A168.803 Y3.633 Z-0.82
Y1.167
A168.799 Y1.125 Z-0.821
A168.786 Y1.083 Z-0.826
A168.764 Y1.04 Z-0.834
A168.734 Y0.998 Z-0.846
A168.695 Y0.956 Z-0.86
A168.648 Y0.914 Z-0.878
A168.592 Y0.871 Z-0.899
A168.527 Y0.829 Z-0.924
A168.454 Y0.787 Z-0.952
A168.372 Y0.745 Z-0.983
A168.024 Z-0.9
A167.763 Z-0.846
A167.502 Z-0.801
A167.328 Z-0.777
A167.154 Z-0.757
A166.98 Z-0.742
A166.806 Z-0.734
A166.632 Z-0.731
A149.491
A149.317 Z-0.737
A149.143 Z-0.749
A148.969 Z-0.766
A148.795 Z-0.788
A148.621 Z-0.815
A148.36 Z-0.863
A148.099 Z-0.92
A147.839 Z-0.983
A147.757 Y0.787 Z-0.952
A147.683 Y0.829 Z-0.924
A147.618 Y0.871 Z-0.899
A147.562 Y0.914 Z-0.878
A147.515 Y0.956 Z-0.86
A147.476 Y0.998 Z-0.846
A147.446 Y1.04 Z-0.834
A147.424 Y1.083 Z-0.826
A147.411 Y1.125 Z-0.821
A147.407 Y1.167 Z-0.819
Y3.633
A149.578 Y4.106 Z0.001
A147.407 Y3.633 Z-0.819
A145.236 Y4.106 Z0.001
A147.407 Y3.633 Z-0.819
Y1.167
A147.411 Y1.125 Z-0.821
A147.424 Y1.083 Z-0.826
A147.446 Y1.04 Z-0.834
A147.476 Y0.998 Z-0.846
A147.515 Y0.956 Z-0.86
A147.562 Y0.914 Z-0.878
A147.618 Y0.871 Z-0.899
A147.683 Y0.829 Z-0.924
A147.757 Y0.787 Z-0.952
A147.839 Y0.745 Z-0.983
A147.757 Y0.702 Z-0.952
A147.683 Y0.66 Z-0.924
A147.618 Y0.618 Z-0.899
A147.562 Y0.576 Z-0.878
A147.515 Y0.533 Z-0.86
A147.476 Y0.491 Z-0.846
A147.446 Y0.449 Z-0.834
A147.424 Y0.407 Z-0.826
A147.411 Y0.365 Z-0.821
A147.407 Y0.322 Z-0.819
Y-2.578
A145.236 Y-3.052 Z0.001
A147.407 Y-2.578 Z-0.819
A149.578 Y-3.052 Z0.001
G0 Z5.
A138.611 Y2.134
G1 Z0.001 F1000.
A136.597 Y1.694 Z-0.76
A134.582 Y2.134 Z0.001
A136.597 Y1.694 Z-0.76
A136.598 Y-0.897
A136.593 Y-1.079 Z-0.762
A136.574 Y-1.27 Z-0.767
A136.543 Y-1.404 Z-0.773
A136.495 Y-1.529 Z-0.778
A136.409 Y-1.69 Z-0.78
A136.369 Y-1.754 Z-0.781
A136.326 Y-1.803 Z-0.785
A136.168 Y-1.924 Z-0.794
A136.036 Y-2.011 Z-0.8
A135.925 Y-2.071 Z-0.802
A135.777 Y-2.138
A135.571 Y-2.216
A135.409 Y-2.272 Z-0.805
A135.145 Y-2.34 Z-0.799
A134.888 Y-2.399 Z-0.794
A134.666 Y-2.444 Z-0.789
A134.4 Y-2.49 Z-0.777
A134.121 Y-2.533 Z-0.762
A133.881 Y-2.567 Z-0.75
A133.681 Y-2.592 Z-0.746
A133.566 Y-2.604 Z-0.742
A132.997 Y-2.661 Z-0.723
A132.528 Y-2.702 Z-0.709
A132.154 Y-2.729 Z-0.698
A131.817 Y-2.748 Z-0.689
A131.488 Y-2.761 Z-0.68
A131.187 Y-2.771 Z-0.673
A130.67 Y-2.782 Z-0.665
A130.508 Y-2.784 Z-0.662
A129.771 Y-2.78 Z-0.637
A129.57 Y-2.777 Z-0.632
A128.759 Y-2.755 Z-0.619
A128.225 Y-2.736 Z-0.611
A127.854 Y-2.717 Z-0.605
A127.474 Y-2.693 Z-0.598
A127.289 Y-2.679 Z-0.595
A126.948 Y-2.649 Z-0.587
A126.775 Y-2.631 Z-0.582
A126.484 Y-2.598 Z-0.572
A126.316 Y-2.577 Z-0.564
A126.036 Y-2.539 Z-0.551
A125.689 Y-2.488 Z-0.531
A125.502 Y-2.458 Z-0.52
A125.147 Y-2.393 Z-0.504
A124.772 Y-2.32 Z-0.486
A124.39 Y-2.239 Z-0.471
A124.128 Y-2.179 Z-0.465
A123.862 Y-2.112 Z-0.464
A123.754 Y-2.085 Z-0.468
A123.636 Y-2.059 Z-0.477
A123.499 Y-2.032 Z-0.493
A123.355 Y-2.006 Z-0.515
A123.192 Y-1.98 Z-0.544
A123.009 Y-1.954 Z-0.581
A122.793 Y-1.927 Z-0.63
A122.547 Y-1.9 Z-0.69
A122.288 Y-1.876 Z-0.758
A121.988 Y-1.851 Z-0.841
A121.753 Y-1.832 Z-0.911
A121.637 Y-1.878 Z-0.867
A121.534 Y-1.924 Z-0.828
A121.442 Y-1.97 Z-0.793
A121.362 Y-2.015 Z-0.763
A121.295 Y-2.061 Z-0.738
A121.24 Y-2.107 Z-0.717
A121.198 Y-2.153 Z-0.701
A121.167 Y-2.198 Z-0.689
A121.149 Y-2.244 Z-0.682
A121.143 Y-2.29 Z-0.68
Y-2.659
A119.341 Y-3.052 Z0.001
A121.143 Y-2.659 Z-0.68
A122.944 Y-3.052 Z0.001
A121.143 Y-2.659 Z-0.68
Y-2.29
A121.149 Y-2.244 Z-0.682
A121.167 Y-2.198 Z-0.689
A121.198 Y-2.153 Z-0.701
A121.24 Y-2.107 Z-0.717
A121.295 Y-2.061 Z-0.738
A121.362 Y-2.015 Z-0.763
A121.442 Y-1.97 Z-0.793
A121.534 Y-1.924 Z-0.828
A121.637 Y-1.878 Z-0.867
A121.753 Y-1.832 Z-0.911
A121.704 Y-1.76 Z-0.892
A121.586 Y-1.573 Z-0.848
A121.504 Y-1.424 Z-0.817
A121.457 Y-1.317 Z-0.799
A121.421 Y-1.214 Z-0.785
A121.395 Y-1.111 Z-0.775
A121.372 Y-0.965 Z-0.767
A121.359 Y-0.78 Z-0.762
A121.355 Y-0.645 Z-0.76
Y1.694
A119.341 Y2.134 Z0.001
A121.355 Y1.694 Z-0.76
A123.369 Y2.134 Z0.001
G0 Z5.
A113.768 Y-3.481
G1 Z0.001 F1000.
A113.523 Y-3.54 Z-0.086
A112.81 Y-3.709 Z-0.336
A112.371 Y-3.809 Z-0.483
A111.98 Y-3.893 Z-0.605
A111.643 Y-3.96 Z-0.701
A111.459 Y-3.993 Z-0.748
A111.015 Y-3.88 Z-0.529
A110.485 Y-3.753 Z-0.282
A109.851 Y-3.608 Z0.001
A110.485 Y-3.753 Z-0.282
A111.015 Y-3.88 Z-0.529
A111.459 Y-3.993 Z-0.748
A111.362 Y-4.045 Z-0.745
A111.21 Y-4.11 Z-0.738
A111.05 Y-4.166 Z-0.73
A110.918 Y-4.207 Z-0.724
A110.67 Y-4.275 Z-0.716
A110.429 Y-4.335 Z-0.71
A110.1 Y-4.41 Z-0.707
A109.877 Y-4.447 Z-0.692
A109.677 Y-4.479 Z-0.68
A109.495 Y-4.505 Z-0.673
A108.863 Y-4.58 Z-0.667
A108.4 Y-4.629 Z-0.662
A107.956 Y-4.671 Z-0.656
A107.684 Y-4.693 Z-0.652
A107.291 Y-4.719 Z-0.646
A106.993 Y-4.735 Z-0.641
A106.561 Y-4.754 Z-0.635
A106.252 Y-4.764 Z-0.632
A105.761 Y-4.776 Z-0.629
A105.025 Y-4.786 Z-0.628
A104.415 Y-4.792 Z-0.629
A103.55 Y-4.786 Z-0.628
A102.933 Y-4.776 Z-0.629
A102.473 Y-4.766 Z-0.631
A102.192 Y-4.757 Z-0.633
A101.766 Y-4.74 Z-0.636
A101.463 Y-4.724 Z-0.639
A101.023 Y-4.695 Z-0.643
A100.586 Y-4.66 Z-0.648
A99.97 Y-4.603 Z-0.657
A99.226 Y-4.525 Z-0.67
A99.035 Y-4.5 Z-0.672
A98.615 Y-4.431 Z-0.685
A98.178 Y-4.354 Z-0.7
A97.902 Y-4.3 Z-0.709
A97.608 Y-4.235 Z-0.717
A97.425 Y-4.189 Z-0.72
A97.183 Y-4.118 Z-0.724
A96.944 Y-4.037 Z-0.728
A96.75 Y-3.964 Z-0.735
A96.565 Y-3.887 Z-0.744
A96.422 Y-3.8 Z-0.738
A96.175 Y-3.634 Z-0.731
A96.113 Y-3.585
A95.962 Y-3.418 Z-0.747
A95.887 Y-3.321 Z-0.754
A95.794 Y-3.17 Z-0.761
A95.748 Y-3.066 Z-0.763
A95.702 Y-2.911 Z-0.766
A95.674 Y-2.708 Z-0.769
A95.673 Y-2.367 Z-0.773
A95.685 Y-2.303 Z-0.778
A95.707 Y-2.257 Z-0.786
A95.74 Y-2.211 Z-0.798
A95.784 Y-2.165 Z-0.815
A95.838 Y-2.119 Z-0.835
A95.904 Y-2.073 Z-0.86
A95.98 Y-2.027 Z-0.889
A96.066 Y-1.981 Z-0.922
A96.164 Y-1.935 Z-0.959
A96.273 Y-1.889 Z-1.
A96.636 Y-1.911 Z-0.898
A96.975 Y-1.935 Z-0.809
A97.259 Y-1.959 Z-0.738
A97.51 Y-1.983 Z-0.679
A97.732 Y-2.009 Z-0.63
A97.951 Y-2.038 Z-0.586
A98.107 Y-2.06 Z-0.56
A98.246 Y-2.08 Z-0.544
A98.393 Y-2.102 Z-0.533
A98.543 Y-2.127 Z-0.526
A98.688 Y-2.155 Z-0.524
A99.197 Y-2.259 Z-0.53
A99.606 Y-2.336 Z-0.538
A100.021 Y-2.407 Z-0.549
A100.275 Y-2.446 Z-0.557
A100.7 Y-2.504 Z-0.571
A100.951 Y-2.533 Z-0.58
A101.259 Y-2.564 Z-0.589
A101.542 Y-2.587 Z-0.596
A101.967 Y-2.615 Z-0.604
A102.321 Y-2.633 Z-0.608
A102.8 Y-2.652 Z-0.612
A103.297 Y-2.668 Z-0.615
A103.947 Y-2.683 Z-0.62
A104.163 Y-2.684 Z-0.628
A104.323 Z-0.634
A105.059 Y-2.667 Z-0.638
A105.583 Y-2.651 Z-0.643
A106.13 Y-2.63 Z-0.651
A106.514 Y-2.611 Z-0.658
A106.934 Y-2.584 Z-0.667
A107.283 Y-2.557 Z-0.676
A107.564 Y-2.531 Z-0.684
A107.843 Y-2.5 Z-0.69
A108.095 Y-2.468 Z-0.694
A108.414 Y-2.422 Z-0.699
A108.771 Y-2.364 Z-0.701
A109.088 Y-2.306 Z-0.703
A109.559 Y-2.212
A109.998 Y-2.119 Z-0.704
A110.14 Y-2.083 Z-0.71
A110.271 Y-2.046 Z-0.719
A110.387 Y-2.012 Z-0.726
A110.888 Y-1.828 Z-0.731
A111.221 Y-1.696 Z-0.736
A111.532 Y-1.559 Z-0.742
A111.733 Y-1.458 Z-0.748
A111.843 Y-1.396 Z-0.752
A112.024 Y-1.274 Z-0.758
A112.134 Y-1.181 Z-0.761
A112.228 Y-1.083 Z-0.764
A112.329 Y-0.942 Z-0.767
A112.402 Y-0.793 Z-0.77
A112.451 Y-0.645 Z-0.774
A112.5 Y-0.425 Z-0.782
A112.491 Y-0.333 Z-0.778
A112.442 Y-0.114 Z-0.774
A112.379 Y0.05 Z-0.769
A112.328 Y0.138 Z-0.765
A112.227 Y0.268 Z-0.757
A112.145 Y0.35 Z-0.752
A111.992 Y0.477 Z-0.745
A111.921 Y0.528 Z-0.743
A111.762 Y0.632 Z-0.741
A111.672 Y0.685 Z-0.743
A111.484 Y0.787 Z-0.746
A111.262 Y0.886 Z-0.744
A110.956 Y1.01
A110.655 Y1.121 Z-0.743
A110.459 Y1.187 Z-0.739
A110.263 Y1.248 Z-0.731
A110.043 Y1.308 Z-0.721
A109.883 Y1.345 Z-0.719
A109.473 Y1.429 Z-0.715
A108.97 Y1.524 Z-0.709
A108.729 Y1.568 Z-0.707
A108.271 Y1.633 Z-0.691
A107.81 Y1.692 Z-0.679
A107.526 Y1.725 Z-0.674
A107.173 Y1.76 Z-0.67
A106.836 Y1.789 Z-0.667
A106.457 Y1.814 Z-0.662
A106.135 Y1.832 Z-0.657
A105.608 Y1.853 Z-0.649
A105.105 Y1.867 Z-0.642
A104.323 Y1.884 Z-0.633
A103.995 Y1.883 Z-0.621
A103.794 Y1.879 Z-0.619
A103.084 Y1.859 Z-0.617
A102.577 Y1.841 Z-0.615
A102.037 Y1.816 Z-0.613
A101.531 Y1.784 Z-0.608
A101.229 Y1.76 Z-0.604
A100.899 Y1.727 Z-0.599
A100.685 Y1.703 Z-0.594
A100.246 Y1.643 Z-0.583
A99.992 Y1.603 Z-0.576
A99.753 Y1.563 Z-0.571
A99.334 Y1.485 Z-0.563
A98.865 Y1.389 Z-0.556
A98.355 Y1.28 Z-0.551
A98.24 Y1.256 Z-0.553
A98.134 Y1.235 Z-0.56
A98.019 Y1.212 Z-0.574
A97.853 Y1.181 Z-0.599
A97.668 Y1.151 Z-0.631
A97.461 Y1.122 Z-0.67
A97.223 Y1.093 Z-0.721
A96.986 Y1.068 Z-0.775
A96.709 Y1.042 Z-0.843
A96.393 Y1.016 Z-0.925
A96.207 Y1.003 Z-0.975
A96.069 Y1.053 Z-0.923
A95.946 Y1.104 Z-0.876
A95.838 Y1.154 Z-0.835
A95.743 Y1.205 Z-0.8
A95.664 Y1.256 Z-0.77
A95.598 Y1.306 Z-0.745
A95.548 Y1.357 Z-0.726
A95.511 Y1.408 Z-0.712
A95.49 Y1.458 Z-0.704
A95.483 Y1.509 Z-0.701
Y1.729
A97.34 Y2.134 Z0.001
A95.483 Y1.729 Z-0.701
A93.625 Y2.134 Z0.001
A95.483 Y1.729 Z-0.701
Y1.509
A95.49 Y1.458 Z-0.704
A95.511 Y1.408 Z-0.712
A95.548 Y1.357 Z-0.726
A95.598 Y1.306 Z-0.745
A95.664 Y1.256 Z-0.77
A95.743 Y1.205 Z-0.8
A95.838 Y1.154 Z-0.835
A95.946 Y1.104 Z-0.876
A96.069 Y1.053 Z-0.923
A96.207 Y1.003 Z-0.975
A96.088 Y0.898 Z-0.93
A95.992 Y0.805 Z-0.894
A95.86 Y0.661 Z-0.844
A95.794 Y0.578 Z-0.819
A95.738 Y0.495 Z-0.798
A95.69 Y0.414 Z-0.779
A95.649 Y0.331 Z-0.764
A95.592 Y0.18 Z-0.742
A95.553 Y0.032 Z-0.728
A95.53 Y-0.111 Z-0.719
A95.505 Y-0.383 Z-0.71
A95.512 Y-0.537 Z-0.712
A95.532 Y-0.745 Z-0.72
A95.558 Y-0.889 Z-0.73
A95.6 Y-1.038 Z-0.745
A95.632 Y-1.123 Z-0.758
A95.706 Y-1.272 Z-0.785
A95.757 Y-1.354 Z-0.805
A95.817 Y-1.437 Z-0.827
A95.886 Y-1.521 Z-0.854
A95.963 Y-1.605 Z-0.883
A96.128 Y-1.764 Z-0.945
A96.273 Y-1.889 Z-1.
G0 Z5.
A87.537 Y-3.052
G1 Z0.001 F1000.
A85.523 Y-2.612 Z-0.76
A83.509 Y-3.052 Z0.001
A85.523 Y-2.612 Z-0.76
A85.518 Y-0.082 Z-0.762
A85.503 Y0.099 Z-0.768
A85.476 Y0.242 Z-0.778
A85.433 Y0.384 Z-0.794
A85.39 Y0.484 Z-0.811
A85.335 Y0.589 Z-0.831
A85.249 Y0.729 Z-0.864
A85.11 Y0.928 Z-0.916
A85.053 Y0.987 Z-0.938
A84.957 Y1.072 Z-0.974
A85.064 Y1.119 Z-0.934
A85.161 Y1.165 Z-0.897
A85.246 Y1.212 Z-0.865
A85.319 Y1.258 Z-0.837
A85.381 Y1.305 Z-0.814
A85.432 Y1.352 Z-0.795
A85.472 Y1.398 Z-0.78
A85.5 Y1.445 Z-0.769
A85.517 Y1.491 Z-0.762
A85.523 Y1.538 Z-0.76
Y3.667
A83.509 Y4.106 Z0.001
A85.523 Y3.667 Z-0.76
A87.537 Y4.106 Z0.001
A85.523 Y3.667 Z-0.76
Y1.538
A85.517 Y1.491 Z-0.762
A85.5 Y1.445 Z-0.769
A85.472 Y1.398 Z-0.78
A85.432 Y1.352 Z-0.795
A85.381 Y1.305 Z-0.814
A85.319 Y1.258 Z-0.837
A85.246 Y1.212 Z-0.865
A85.161 Y1.165 Z-0.897
A85.064 Y1.119 Z-0.934
A84.957 Y1.072 Z-0.974
A84.876 Y1.076 Z-0.951
A84.538 Y1.097 Z-0.856
A84.221 Y1.12 Z-0.772
A83.942 Y1.143 Z-0.703
A83.702 Y1.166 Z-0.648
A83.491 Y1.188 Z-0.605
A83.303 Y1.211 Z-0.571
A83.132 Y1.234 Z-0.545
A82.973 Y1.257 Z-0.526
A82.821 Y1.282 Z-0.513
A82.68 Y1.307 Z-0.507
A82.401 Y1.363
A82.005 Y1.438 Z-0.515
A81.388 Y1.546 Z-0.533
A81.108 Y1.588 Z-0.545
A80.581 Y1.659 Z-0.569
A80.27 Y1.697 Z-0.58
A79.885 Y1.738 Z-0.592
A79.602 Y1.763 Z-0.599
A79.228 Y1.79 Z-0.606
A78.951 Y1.807 Z-0.611
A78.488 Y1.828 Z-0.618
A77.969 Y1.845 Z-0.626
A77.333 Y1.86 Z-0.634
A77.208 Y1.862 Z-0.636
A76.393 Y1.866 Z-0.662
A76.076 Y1.862 Z-0.667
A75.565 Y1.851 Z-0.676
A75.106 Y1.836 Z-0.686
A74.718 Y1.818 Z-0.698
A74.387 Y1.798 Z-0.708
A74.089 Y1.775 Z-0.717
A73.675 Y1.736 Z-0.73
A73.256 Y1.69 Z-0.747
A72.795 Y1.634 Z-0.768
A72.604 Y1.606 Z-0.773
A72.191 Y1.541 Z-0.782
A71.998 Y1.507 Z-0.788
A71.821 Y1.469 Z-0.797
A71.644 Y1.422 Z-0.808
A71.495 Y1.378 Z-0.813
A71.279 Y1.306 Z-0.815
A71.002 Y1.204 Z-0.816
A70.916 Y1.159 Z-0.809
A70.718 Y1.05 Z-0.794
A70.609 Y0.98 Z-0.787
A70.468 Y0.874 Z-0.78
A70.397 Y0.806 Z-0.777
A70.313 Y0.698 Z-0.772
A70.261 Y0.599 Z-0.768
A70.224 Y0.484 Z-0.764
A70.2 Y0.336 Z-0.761
A70.192 Y-2.612 Z-0.76
A72.206 Y-3.052 Z0.001
A70.192 Y-2.612 Z-0.76
A68.177 Y-3.052 Z0.001
G0 Z5.
A45.774 Y-1.382
G1 Z0.001 F1000.
A45.615 Y-1.44 Z-0.092
A44.966 Y-1.683 Z-0.48
A44.496 Y-1.868 Z-0.775
A44.229 Y-1.837 Z-0.711
A43.716 Y-1.775 Z-0.579
A43.153 Y-1.703 Z-0.429
A42.242 Y-1.58 Z-0.177
A41.611 Y-1.494 Z0.001
A42.242 Y-1.58 Z-0.177
A43.153 Y-1.703 Z-0.429
A43.716 Y-1.775 Z-0.579
A44.229 Y-1.837 Z-0.711
A44.496 Y-1.868 Z-0.775
A44.644 Y-1.927 Z-0.772
A44.892 Y-2.015 Z-0.765
A45.056 Y-2.065 Z-0.758
A45.357 Y-2.149 Z-0.748
A45.69 Y-2.231 Z-0.739
A45.965 Y-2.293 Z-0.733
A46.419 Y-2.39 Z-0.728
A46.965 Y-2.481 Z-0.698
A47.093 Y-2.501 Z-0.691
A47.27 Y-2.525 Z-0.686
A47.89 Y-2.601 Z-0.679
A48.314 Y-2.647 Z-0.672
A48.71 Y-2.685 Z-0.664
A49.106 Y-2.716 Z-0.655
A49.524 Y-2.742 Z-0.646
A49.902 Y-2.761 Z-0.639
A50.405 Y-2.779 Z-0.632
A50.819 Y-2.789 Z-0.628
A51.403 Y-2.8 Z-0.625
A51.968 Y-2.807 Z-0.624
A52.176 Y-2.806
A53.084 Y-2.789 Z-0.628
A53.686 Y-2.774 Z-0.632
A54.137 Y-2.759 Z-0.638
A54.53 Y-2.742 Z-0.643
A55.086 Y-2.711 Z-0.654
A55.388 Y-2.691 Z-0.661
A55.676 Y-2.667 Z-0.668
A55.986 Y-2.638 Z-0.676
A56.417 Y-2.59 Z-0.686
A56.753 Y-2.547 Z-0.692
A57.184 Y-2.484 Z-0.7
A57.653 Y-2.408 Z-0.707
A58.247 Y-2.305 Z-0.715
A58.425 Y-2.27 Z-0.719
A58.873 Y-2.169 Z-0.749
A59.299 Y-2.037 Z-0.75
A59.65 Y-1.922 Z-0.753
A59.998 Y-1.797 Z-0.758
A60.305 Y-1.672 Z-0.765
A60.468 Y-1.595 Z-0.77
A60.602 Y-1.524 Z-0.774
A60.718 Y-1.453 Z-0.778
A60.858 Y-1.35 Z-0.782
A60.974 Y-1.243 Z-0.783
A61.06 Y-1.142
A61.128 Y-1.041
A61.199 Y-0.91 Z-0.781
A61.283 Y-0.689 Z-0.777
A61.285 Y-0.641 Z-0.781
A61.272 Y-0.588 Z-0.79
A61.247 Y-0.536 Z-0.805
A61.2 Y-0.482 Z-0.823
A61.139 Y-0.433 Z-0.842
A61.057 Y-0.38 Z-0.869
A60.957 Y-0.325 Z-0.902
A60.898 Y-0.296 Z-0.921
A60.947 Y-0.26 Z-0.899
A61.013 Y-0.204 Z-0.868
A61.059 Y-0.152 Z-0.844
A61.091 Y-0.1 Z-0.825
A61.108 Y-0.05 Z-0.81
A61.113 Y0. Z-0.8
A61.103 Y0.049 Z-0.793
A61.048 Y0.149 Z-0.79
A60.929 Y0.307 Z-0.783
A60.816 Y0.42 Z-0.774
A60.747 Y0.478 Z-0.769
A60.606 Y0.578 Z-0.757
A60.468 Y0.659 Z-0.746
A60.233 Y0.777 Z-0.731
A60.077 Y0.845 Z-0.724
A59.79 Y0.956 Z-0.716
A59.477 Y1.064 Z-0.712
A59.301 Y1.12
A58.881 Y1.248 Z-0.717
A58.53 Y1.327 Z-0.698
A58.282 Y1.382 Z-0.685
A58.117 Y1.415 Z-0.681
A57.503 Y1.521 Z-0.678
A57.114 Y1.583 Z-0.675
A56.728 Y1.638 Z-0.671
A56.462 Y1.673 Z-0.668
A56.211 Y1.703 Z-0.664
A55.973 Y1.728 Z-0.659
A55.657 Y1.757 Z-0.653
A55.201 Y1.791 Z-0.644
A54.878 Y1.811 Z-0.638
A54.335 Y1.837 Z-0.631
A53.951 Y1.851 Z-0.628
A53.313 Y1.869 Z-0.625
A52.376 Y1.888 Z-0.624
A52.215 Z-0.623
A51.575 Y1.876
A50.805 Y1.856 Z-0.626
A50.356 Y1.841 Z-0.629
A49.972 Y1.824 Z-0.632
A49.634 Y1.807 Z-0.635
A49.193 Y1.778 Z-0.641
A48.794 Y1.745 Z-0.645
A48.498 Y1.716 Z-0.649
A48.415 Y1.707 Z-0.65
A47.975 Y1.652 Z-0.654
A47.683 Y1.61 Z-0.657
A47.239 Y1.539 Z-0.662
A46.767 Y1.455 Z-0.669
A45.986 Y1.302 Z-0.682
A45.887 Y1.282 Z-0.685
A45.829 Y1.267
A45.6 Y1.193 Z-0.687
A45.245 Y1.073 Z-0.693
A44.916 Y0.953 Z-0.701
A44.659 Y0.849 Z-0.71
A44.432 Y0.746 Z-0.722
A44.303 Y0.678 Z-0.73
A44.15 Y0.585 Z-0.741
A44.069 Y0.528 Z-0.747
A43.943 Y0.42 Z-0.757
A43.816 Y0.277 Z-0.766
A43.723 Y0.135 Z-0.771
A43.687 Y0.067 Z-0.772
A43.674 Y0.013 Z-0.777
A43.675 Y-0.036 Z-0.786
A43.692 Y-0.087 Z-0.799
A43.726 Y-0.143 Z-0.819
A43.773 Y-0.196 Z-0.843
A42.532 Y-0.453 Z-0.398
A41.499 Y-0.684 Z0.001
A42.532 Y-0.453 Z-0.398
A43.773 Y-0.196 Z-0.843
A43.968 Y-0.22 Z-0.802
A44.164 Y-0.242 Z-0.765
A44.36 Y-0.26 Z-0.732
A44.555 Y-0.277 Z-0.704
A44.751 Y-0.291 Z-0.68
A44.947 Y-0.302 Z-0.66
A45.142 Y-0.311 Z-0.645
A45.338 Y-0.317 Z-0.634
A45.534 Y-0.321 Z-0.627
A45.729 Y-0.322 Z-0.625
A59.203 Y-0.321 Z-0.627
A59.309 Y-0.319 Z-0.631
A59.476 Y-0.317 Z-0.641
A59.643 Y-0.314 Z-0.658
A59.81 Y-0.312 Z-0.68
A59.978 Y-0.31 Z-0.707
A60.229 Y-0.306 Z-0.755
A60.48 Y-0.302 Z-0.812
A60.814 Y-0.297 Z-0.898
A60.898 Y-0.296 Z-0.921
G0 Z5.
A38.164 Y-1.504
G1 Z0.001 F1000.
A37.53 Y-1.597 Z-0.195
A36.622 Y-1.727 Z-0.472
A36.07 Y-1.803 Z-0.634
A35.656 Y-1.857 Z-0.75
A35.423 Y-1.773 Z-0.62
A35.089 Y-1.658 Z-0.443
A34.625 Y-1.507 Z-0.212
A34.181 Y-1.367 Z0.001
A34.625 Y-1.507 Z-0.212
A35.089 Y-1.658 Z-0.443
A35.423 Y-1.773 Z-0.62
A35.656 Y-1.857 Z-0.75
A35.555 Y-1.913
A35.368 Y-2. Z-0.747
A35.217 Y-2.058 Z-0.745
A34.955 Y-2.144 Z-0.738
A34.675 Y-2.223 Z-0.733
A34.371 Y-2.3 Z-0.728
A33.958 Y-2.397 Z-0.724
A33.881 Y-2.415
A33.64 Y-2.456 Z-0.707
A33.455 Y-2.485 Z-0.698
A32.943 Y-2.551 Z-0.689
A32.391 Y-2.616 Z-0.681
A31.972 Y-2.66 Z-0.673
A31.526 Y-2.7 Z-0.664
A31.042 Y-2.733 Z-0.653
A30.547 Y-2.759 Z-0.644
A30.05 Y-2.777 Z-0.636
A29.58 Y-2.789 Z-0.631
A29.12 Y-2.797 Z-0.628
A28.088 Y-2.807 Z-0.625
A27.234 Y-2.801 Z-0.623
A26.648 Y-2.792
A26.278 Y-2.784
A25.908 Y-2.771 Z-0.624
A25.463 Y-2.751 Z-0.625
A25.01 Y-2.723 Z-0.627
A24.549 Y-2.689 Z-0.633
A24.295 Y-2.667 Z-0.638
A23.717 Y-2.612 Z-0.654
A23.3 Y-2.564 Z-0.659
A22.957 Y-2.521 Z-0.662
A22.776 Y-2.495 Z-0.666
A22.424 Y-2.435 Z-0.683
A22.151 Y-2.382 Z-0.692
A21.885 Y-2.322 Z-0.698
A21.631 Y-2.256 Z-0.703
A21.408 Y-2.192 Z-0.711
A21.236 Y-2.136 Z-0.72
A21.129 Y-2.095 Z-0.725
A20.95 Y-2.012 Z-0.736
A20.821 Y-1.943 Z-0.747
A20.719 Y-1.877 Z-0.758
A20.64 Y-1.811 Z-0.766
A20.581 Y-1.742 Z-0.77
A20.535 Y-1.67 Z-0.771
A20.515 Y-1.617 Z-0.774
A20.514 Y-1.543 Z-0.785
A20.531 Y-1.488 Z-0.791
A20.584 Y-1.39 Z-0.799
A20.649 Y-1.314 Z-0.807
A20.7 Y-1.269 Z-0.811
A20.765 Y-1.227 Z-0.813
A20.881 Y-1.167 Z-0.814
A21.013 Y-1.111 Z-0.815
A21.195 Y-1.043 Z-0.821
A21.381 Y-0.993 Z-0.818
A21.642 Y-0.929 Z-0.819
A21.869 Y-0.882 Z-0.818
A22.019 Y-0.855 Z-0.815
A22.316 Y-0.808 Z-0.805
A22.607 Y-0.767 Z-0.795
A22.82 Y-0.742 Z-0.792
A22.891 Y-0.734
A23.974 Y-0.64 Z-0.779
A24.661 Y-0.585 Z-0.775
A25.155 Y-0.549
A25.924 Y-0.498 Z-0.777
A26.849 Y-0.443 Z-0.782
A28.138 Y-0.37 Z-0.787
A29.449 Y-0.294 Z-0.789
A30.369 Y-0.237 Z-0.787
A31.287 Y-0.174 Z-0.781
A32.037 Y-0.119 Z-0.774
A32.387 Y-0.091 Z-0.772
A32.927 Y-0.041 Z-0.779
A33.225 Y-0.01 Z-0.784
A33.487 Y0.024 Z-0.785
A33.821 Y0.072 Z-0.791
A34.057 Y0.112 Z-0.794
A34.234 Y0.147
A34.448 Y0.197 Z-0.791
A34.713 Y0.264 Z-0.784
A34.839 Y0.301 Z-0.785
A35.097 Y0.401 Z-0.774
A35.25 Y0.472 Z-0.769
A35.346 Y0.529 Z-0.763
A35.419 Y0.59 Z-0.755
A35.48 Y0.667 Z-0.747
A35.519 Y0.74 Z-0.742
A35.529 Y0.778 Z-0.738
A35.526 Y0.868 Z-0.728
A35.503 Y0.92 Z-0.726
A35.463 Y0.974 Z-0.725
A35.399 Y1.035 Z-0.72
A35.292 Y1.113 Z-0.71
A35.177 Y1.181 Z-0.702
A35.119 Y1.212 Z-0.699
A34.943 Y1.285 Z-0.688
A34.763 Y1.348 Z-0.683
A34.601 Y1.398 Z-0.68
A34.392 Y1.45 Z-0.675
A34.146 Y1.504 Z-0.669
A33.784 Y1.574 Z-0.662
A33.742 Y1.581 Z-0.661
A33.394 Y1.636 Z-0.649
A33.207 Y1.66 Z-0.648
A32.869 Y1.698
A32.608 Y1.724 Z-0.645
A32.126 Y1.766 Z-0.636
A31.674 Y1.801 Z-0.629
A31.267 Y1.826 Z-0.624
A30.824 Y1.849 Z-0.622
A30.393 Y1.865 Z-0.623
A29.915 Y1.878 Z-0.624
A29.38 Y1.885
A28.64 Y1.889 Z-0.625
A28.176 Y1.887 Z-0.623
A27.508 Y1.879
A26.928 Y1.867 Z-0.625
A26.506 Y1.854 Z-0.627
A26.075 Y1.834 Z-0.631
A25.64 Y1.807 Z-0.637
A25.233 Y1.777 Z-0.647
A24.743 Y1.736 Z-0.663
A24.336 Y1.697 Z-0.678
A23.739 Y1.629 Z-0.693
A23.549 Y1.602 Z-0.702
A23.348 Y1.569 Z-0.715
A23.121 Y1.528 Z-0.727
A22.872 Y1.477 Z-0.735
A22.607 Y1.415 Z-0.741
A22.311 Y1.339 Z-0.751
A22.1 Y1.264 Z-0.748
A21.892 Y1.179 Z-0.749
A21.846 Y1.158 Z-0.75
A22.097 Y1.063 Z-0.599
A22.386 Y0.96 Z-0.437
A22.775 Y0.831 Z-0.236
A23.259 Y0.679 Z0.001
A22.775 Y0.831 Z-0.236
A22.386 Y0.96 Z-0.437
A22.097 Y1.063 Z-0.599
A21.846 Y1.158 Z-0.75
A21.578 Y1.126 Z-0.681
A21.186 Y1.075 Z-0.574
A20.737 Y1.012 Z-0.443
A20.055 Y0.91 Z-0.233
A19.319 Y0.796 Z0.001
G0 Z5.
A-9.06 Y3.262
G1 Z0.001 F1000.
A-10.996 Y3.684 Z-0.731
A-9.06 Y4.106 Z0.001
A-10.996 Y3.684 Z-0.731
A-20.087 Y3.683 Z-0.733
A-20.304 Y3.679 Z-0.74
A-20.521 Y3.672 Z-0.751
A-20.738 Y3.663 Z-0.767
A-20.955 Y3.651 Z-0.788
A-21.173 Y3.636 Z-0.813
A-21.39 Y3.619 Z-0.843
A-21.607 Y3.599 Z-0.878
A-21.824 Y3.577 Z-0.917
A-22.041 Y3.551 Z-0.961
A-22.258 Y3.577 Z-0.917
A-22.475 Y3.599 Z-0.878
A-22.692 Y3.619 Z-0.843
A-22.909 Y3.636 Z-0.813
A-23.126 Y3.651 Z-0.788
A-23.344 Y3.663 Z-0.767
A-23.561 Y3.672 Z-0.751
A-23.778 Y3.679 Z-0.74
A-23.995 Y3.683 Z-0.733
A-24.212 Y3.684 Z-0.731
A-33.131
A-35.067 Y3.262 Z0.001
A-33.131 Y3.684 Z-0.731
A-35.067 Y4.106 Z0.001
A-33.131 Y3.684 Z-0.731
A-24.212
A-23.995 Y3.683 Z-0.733
A-23.778 Y3.679 Z-0.74
A-23.561 Y3.672 Z-0.751
A-23.344 Y3.663 Z-0.767
A-23.126 Y3.651 Z-0.788
A-22.909 Y3.636 Z-0.813
A-22.692 Y3.619 Z-0.843
A-22.475 Y3.599 Z-0.878
A-22.258 Y3.577 Z-0.917
A-22.041 Y3.551 Z-0.961
Y3.508 Z-0.924
Y3.464 Z-0.891
Y3.421 Z-0.865
Y3.378 Z-0.844
Y3.334 Z-0.829
Y3.291 Z-0.821
Y-2.578 Z-0.819
A-19.87 Y-3.052 Z0.001
A-22.041 Y-2.578 Z-0.819
A-24.212 Y-3.052 Z0.001
G0 Z5.
A-35.756 Y-1.769
G1 Z-0.756 F1000.
A-35.507 Y-1.666 Z-0.762
A-35.345 Y-1.591 Z-0.766
A-35.201 Y-1.515 Z-0.77
A-35.07 Y-1.435 Z-0.772
A-34.96 Y-1.356 Z-0.774
A-34.853 Y-1.263 Z-0.776
A-34.73 Y-1.124
A-34.675 Y-1.04
A-34.597 Y-0.879 Z-0.777
A-34.544 Y-0.709 Z-0.778
A-34.499 Y-0.471 Z-0.781
Y-0.446
A-34.558 Y-0.164 Z-0.777
A-34.613 Y-0.003 Z-0.776
A-34.686 Y0.138 Z-0.775
A-34.768 Y0.253 Z-0.776
A-34.878 Y0.371
A-34.977 Y0.455
A-35.09 Y0.536 Z-0.775
A-35.195 Y0.6 Z-0.774
A-35.227 Y0.618
A-35.367 Y0.69 Z-0.77
A-35.526 Y0.762 Z-0.766
A-35.693 Y0.831 Z-0.761
A-36.046 Y0.961 Z-0.749
A-36.488 Y1.107 Z-0.734
A-37.04 Y1.276 Z-0.714
A-37.18 Y1.313
A-37.268 Y1.334 Z-0.717
A-37.404 Y1.366 Z-0.721
A-38.066 Y1.48 Z-0.701
A-38.52 Y1.553 Z-0.688
A-39.012 Y1.625 Z-0.677
A-39.498 Y1.687 Z-0.669
A-39.837 Y1.724 Z-0.663
A-40.162 Y1.754 Z-0.659
A-40.435 Y1.776 Z-0.654
A-40.914 Y1.807 Z-0.648
A-41.293 Y1.826 Z-0.643
A-41.83 Y1.847 Z-0.637
A-42.141 Y1.857 Z-0.635
A-42.921 Y1.875 Z-0.63
A-43.593 Y1.886 Z-0.628
A-43.816 Y1.883
A-44.766 Y1.862 Z-0.632
A-45.317 Y1.845 Z-0.636
A-45.89 Y1.822 Z-0.643
A-46.454 Y1.791 Z-0.652
A-46.787 Y1.768 Z-0.658
A-47.093 Y1.743 Z-0.664
A-47.515 Y1.7 Z-0.672
A-47.882 Y1.656 Z-0.678
A-48.177 Y1.616 Z-0.683
A-48.505 Y1.567 Z-0.689
A-48.865 Y1.508 Z-0.695
A-49.279 Y1.435 Z-0.703
A-49.963 Y1.305 Z-0.717
A-50.124 Y1.269 Z-0.726
A-50.18 Y1.255 Z-0.73
A-50.712 Y1.084 Z-0.741
A-51.102 Y0.95 Z-0.75
A-51.453 Y0.818 Z-0.76
A-51.741 Y0.694 Z-0.768
A-51.878 Y0.625 Z-0.771
A-52.032 Y0.537 Z-0.774
A-52.161 Y0.446 Z-0.777
A-52.244 Y0.377
A-52.37 Y0.242
A-52.437 Y0.147
A-52.513 Y0.
A-52.566 Y-0.15 Z-0.779
A-52.622 Y-0.394 Z-0.782
Y-0.444 Z-0.781
A-52.578 Y-0.729
A-52.529 Y-0.886
A-52.453 Y-1.034 Z-0.78
A-52.398 Y-1.113 Z-0.779
A-52.303 Y-1.219 Z-0.777
A-52.159 Y-1.344 Z-0.773
A-52.026 Y-1.439 Z-0.771
A-51.839 Y-1.555 Z-0.772
A-51.657 Y-1.655 Z-0.775
A-51.49 Y-1.741 Z-0.781
A-51.431 Y-1.767 Z-0.782
A-51.087 Y-1.897 Z-0.772
A-50.754 Y-2.012 Z-0.763
A-50.539 Y-2.081 Z-0.755
A-50.329 Y-2.143 Z-0.745
A-50.081 Y-2.21 Z-0.73
A-49.916 Y-2.246 Z-0.725
A-49.693 Y-2.289 Z-0.721
A-49.249 Y-2.369 Z-0.709
A-48.714 Y-2.458 Z-0.694
A-48.384 Y-2.509 Z-0.686
A-47.866 Y-2.574 Z-0.666
A-47.484 Y-2.617 Z-0.656
A-47.282 Y-2.638 Z-0.652
A-46.884 Y-2.676 Z-0.647
A-46.497 Y-2.706 Z-0.644
A-46.168 Y-2.728 Z-0.642
A-45.834 Y-2.746 Z-0.64
A-45.535 Y-2.76 Z-0.638
A-45.005 Y-2.778 Z-0.634
A-44.443 Y-2.792 Z-0.629
A-43.593 Y-2.807 Z-0.624
A-43.49 Y-2.806 Z-0.623
A-43.166 Y-2.8 Z-0.624
A-42.377 Y-2.783 Z-0.628
A-41.824 Y-2.767 Z-0.633
A-41.242 Y-2.744 Z-0.64
A-40.682 Y-2.714 Z-0.649
A-40.346 Y-2.691 Z-0.655
A-40.04 Y-2.666 Z-0.661
A-39.746 Y-2.638 Z-0.668
A-39.342 Y-2.593 Z-0.676
A-38.957 Y-2.542 Z-0.682
A-38.593 Y-2.488 Z-0.689
A-38.251 Y-2.432 Z-0.695
A-37.816 Y-2.355 Z-0.704
A-37.162 Y-2.232 Z-0.717
A-36.997 Y-2.196 Z-0.726
A-36.932 Y-2.18 Z-0.731
A-36.565 Y-2.059 Z-0.738
A-36.19 Y-1.932 Z-0.746
A-35.81 Y-1.792 Z-0.754
A-35.756 Y-1.769 Z-0.756
G0 Z5.
A-60.177 Y-1.056
G1 Z-0.776 F1000.
A-60.099 Y-0.903
A-60.048 Y-0.755 Z-0.777
A-59.991 Y-0.472 Z-0.781
A-59.99 Y-0.456
A-60.043 Y-0.187 Z-0.777
A-60.096 Y-0.025 Z-0.775
A-60.171 Y0.126
A-60.26 Y0.253 Z-0.776
A-60.357 Y0.358
A-60.447 Y0.437
A-60.554 Y0.517 Z-0.775
A-60.681 Y0.596 Z-0.774
A-60.828 Y0.674 Z-0.771
A-60.987 Y0.749 Z-0.767
A-61.156 Y0.819 Z-0.762
A-61.515 Y0.953 Z-0.75
A-61.888 Y1.078 Z-0.737
A-62.261 Y1.195 Z-0.723
A-62.486 Y1.263 Z-0.715
A-62.622 Y1.301 Z-0.713
A-62.896 Y1.366 Z-0.721
A-63.558 Y1.48 Z-0.7
A-64.011 Y1.553 Z-0.688
A-64.506 Y1.625 Z-0.677
A-64.997 Y1.688 Z-0.669
A-65.329 Y1.724 Z-0.663
A-65.654 Y1.754 Z-0.659
A-65.927 Y1.776 Z-0.654
A-66.406 Y1.807 Z-0.648
A-66.785 Y1.826 Z-0.643
A-67.326 Y1.847 Z-0.637
A-67.634 Y1.857 Z-0.635
A-68.413 Y1.875 Z-0.63
A-69.085 Y1.886 Z-0.628
A-69.308 Y1.883
A-70.259 Y1.862 Z-0.632
A-70.809 Y1.845 Z-0.636
A-71.382 Y1.822 Z-0.643
A-71.946 Y1.791 Z-0.652
A-72.281 Y1.768 Z-0.658
A-72.584 Y1.743 Z-0.664
A-73.008 Y1.7 Z-0.672
A-73.38 Y1.656 Z-0.678
A-73.668 Y1.616 Z-0.683
A-73.997 Y1.567 Z-0.689
A-74.358 Y1.508 Z-0.695
A-74.772 Y1.435 Z-0.703
A-75.455 Y1.305 Z-0.717
A-75.616 Y1.269 Z-0.726
A-75.671 Y1.255 Z-0.73
A-76.204 Y1.084 Z-0.741
A-76.595 Y0.95 Z-0.75
A-76.945 Y0.819 Z-0.76
A-77.238 Y0.692 Z-0.768
A-77.397 Y0.611 Z-0.772
A-77.566 Y0.509 Z-0.776
A-77.653 Y0.446 Z-0.777
A-77.801 Y0.313
A-77.877 Y0.223
A-77.971 Y0.073
A-78.034 Y-0.072 Z-0.778
A-78.091 Y-0.282 Z-0.78
A-78.115 Y-0.426 Z-0.781
A-78.106 Y-0.511
A-78.07 Y-0.728
A-78.021 Y-0.886
A-77.945 Y-1.034 Z-0.78
A-77.89 Y-1.113 Z-0.779
A-77.795 Y-1.219 Z-0.777
A-77.655 Y-1.341 Z-0.773
A-77.524 Y-1.435 Z-0.771
A-77.331 Y-1.555 Z-0.772
A-77.149 Y-1.655 Z-0.775
A-76.981 Y-1.742 Z-0.781
A-76.923 Y-1.767 Z-0.782
A-76.634 Y-1.877 Z-0.773
A-76.279 Y-2.001 Z-0.764
A-76.03 Y-2.081 Z-0.755
A-75.822 Y-2.143 Z-0.745
A-75.573 Y-2.21 Z-0.73
A-75.408 Y-2.246 Z-0.725
A-75.185 Y-2.289 Z-0.721
A-74.741 Y-2.369 Z-0.709
A-74.206 Y-2.458 Z-0.694
A-73.875 Y-2.509 Z-0.686
A-73.349 Y-2.575 Z-0.665
A-72.843 Y-2.631 Z-0.653
A-72.498 Y-2.665 Z-0.648
A-72.181 Y-2.692 Z-0.645
A-71.8 Y-2.719 Z-0.643
A-71.35 Y-2.745 Z-0.64
A-71.027 Y-2.76 Z-0.638
A-70.497 Y-2.778 Z-0.634
A-69.935 Y-2.792 Z-0.629
A-69.085 Y-2.807 Z-0.624
A-68.982 Y-2.806 Z-0.623
A-68.658 Y-2.8 Z-0.624
A-67.87 Y-2.783 Z-0.628
A-67.316 Y-2.767 Z-0.633
A-66.735 Y-2.744 Z-0.64
A-66.174 Y-2.714 Z-0.649
A-65.838 Y-2.691 Z-0.655
A-65.533 Y-2.666 Z-0.661
A-65.239 Y-2.638 Z-0.667
A-64.835 Y-2.593 Z-0.676
A-64.449 Y-2.542 Z-0.682
A-64.085 Y-2.488 Z-0.689
A-63.743 Y-2.432 Z-0.695
A-63.308 Y-2.355 Z-0.704
A-62.654 Y-2.232 Z-0.717
A-62.489 Y-2.196 Z-0.726
A-62.424 Y-2.18 Z-0.731
A-61.891 Y-2.004 Z-0.741
A-61.539 Y-1.88 Z-0.749
A-61.195 Y-1.749 Z-0.757
A-60.977 Y-1.656 Z-0.763
A-60.725 Y-1.532 Z-0.769
A-60.604 Y-1.463 Z-0.772
A-60.508 Y-1.398 Z-0.774
A-60.378 Y-1.294 Z-0.775
A-60.284 Y-1.2
A-60.177 Y-1.056 Z-0.776
G0 Z5.
A-84.82 Y-3.052
G1 Z0.001 F1000.
A-86.834 Y-2.612 Z-0.76
A-88.849 Y-3.052 Z0.001
A-86.834 Y-2.612 Z-0.76
Y3.667
A-84.82 Y4.106 Z0.001
A-86.834 Y3.667 Z-0.76
A-88.849 Y4.106 Z0.001
G0 Z5.
A-95.116 Y-3.052
G1 Z0.001 F1000.
A-97.13 Y-2.612 Z-0.76
A-99.144 Y-3.052 Z0.001
A-97.13 Y-2.612 Z-0.76
Y1.694
A-99.144 Y2.134 Z0.001
A-97.13 Y1.694 Z-0.76
A-95.116 Y2.134 Z0.001
G0 Z5.
Y3.096
G1 Z0.001 F1000.
A-97.13 Y3.535 Z-0.76
A-99.144 Y3.096 Z0.001
A-97.13 Y3.535 Z-0.76
Y3.667
A-99.144 Y4.106 Z0.001
A-97.13 Y3.667 Z-0.76
A-95.116 Y4.106 Z0.001
G0 Z5.
A-105.277 Y-3.052
G1 Z0.001 F1000.
A-107.291 Y-2.612 Z-0.76
A-109.305 Y-3.052 Z0.001
A-107.291 Y-2.612 Z-0.76
Y-0.22
A-107.292 Y-0.154 Z-0.761
A-107.3 Y0.04 Z-0.764
A-107.316 Y0.176 Z-0.77
A-107.346 Y0.317 Z-0.781
A-107.371 Y0.4 Z-0.791
A-107.403 Y0.482 Z-0.803
A-107.473 Y0.619 Z-0.829
A-107.525 Y0.699 Z-0.849
A-107.589 Y0.783 Z-0.873
A-107.664 Y0.867 Z-0.901
A-107.724 Y0.928 Z-0.924
A-107.604 Y0.975 Z-0.878
A-107.496 Y1.022 Z-0.838
A-107.4 Y1.069 Z-0.802
A-107.318 Y1.116 Z-0.771
A-107.248 Y1.162 Z-0.744
A-107.191 Y1.209 Z-0.723
A-107.147 Y1.256 Z-0.706
A-107.115 Y1.303 Z-0.694
A-107.096 Y1.35 Z-0.687
A-107.089 Y1.396 Z-0.684
Y1.738
A-108.902 Y2.134 Z0.001
A-107.089 Y1.738 Z-0.684
A-105.277 Y2.134 Z0.001
A-107.089 Y1.738 Z-0.684
Y1.396
A-107.096 Y1.35 Z-0.687
A-107.115 Y1.303 Z-0.694
A-107.147 Y1.256 Z-0.706
A-107.191 Y1.209 Z-0.723
A-107.248 Y1.162 Z-0.744
A-107.318 Y1.116 Z-0.771
A-107.4 Y1.069 Z-0.802
A-107.496 Y1.022 Z-0.838
A-107.604 Y0.975 Z-0.878
A-107.724 Y0.928 Z-0.924
A-107.981 Y0.948 Z-0.851
A-108.295 Y0.974 Z-0.766
A-108.569 Y1. Z-0.697
A-108.769 Y1.022 Z-0.65
A-108.996 Y1.05 Z-0.601
A-109.186 Y1.076 Z-0.564
A-109.35 Y1.102 Z-0.536
A-109.513 Y1.131 Z-0.513
A-109.652 Y1.16 Z-0.497
A-109.768 Y1.187 Z-0.488
A-110.105 Y1.28 Z-0.476
A-110.203 Y1.306 Z-0.473
A-110.324 Y1.335 Z-0.475
A-110.886 Y1.447 Z-0.504
A-111.408 Y1.541 Z-0.531
A-111.664 Y1.584 Z-0.543
A-112. Y1.635 Z-0.559
A-112.213 Y1.664 Z-0.568
A-112.443 Y1.692 Z-0.578
A-112.699 Y1.721 Z-0.588
A-112.925 Y1.742 Z-0.595
A-113.37 Y1.776 Z-0.607
A-113.662 Y1.794 Z-0.613
A-114.162 Y1.818 Z-0.622
A-114.836 Y1.841 Z-0.631
A-115.503 Y1.857 Z-0.638
A-115.894 Y1.861 Z-0.648
A-116.515 Y1.864 Z-0.669
A-116.833 Y1.858 Z-0.673
A-117.317 Y1.846 Z-0.683
A-117.701 Y1.831 Z-0.694
A-118.058 Y1.813 Z-0.706
A-118.485 Y1.784 Z-0.719
A-119.007 Y1.741 Z-0.734
A-119.368 Y1.708 Z-0.744
A-119.644 Y1.678 Z-0.757
A-120.116 Y1.616 Z-0.775
A-120.462 Y1.565 Z-0.789
A-120.65 Y1.533 Z-0.795
A-120.873 Y1.489 Z-0.8
A-121.137 Y1.426 Z-0.804
A-121.383 Y1.361 Z-0.811
A-121.58 Y1.292 Z-0.809
A-121.798 Y1.206
A-121.923 Y1.151 Z-0.807
A-122.065 Y1.076 Z-0.801
A-122.138 Y1.026 Z-0.799
A-122.283 Y0.906
A-122.399 Y0.763 Z-0.785
A-122.48 Y0.636 Z-0.776
A-122.533 Y0.511 Z-0.769
A-122.562 Y0.379 Z-0.764
A-122.574 Y0.243 Z-0.762
A-122.577 Y0.103 Z-0.76
Y-2.612
A-124.591 Y-3.052 Z0.001
A-122.577 Y-2.612 Z-0.76
A-120.563 Y-3.052 Z0.001
G0 Z5.
A-130.03 Y-3.481
G1 Z0.001 F1000.
A-130.275 Y-3.54 Z-0.086
A-130.988 Y-3.709 Z-0.336
A-131.426 Y-3.809 Z-0.482
A-131.818 Y-3.893 Z-0.605
A-132.155 Y-3.96 Z-0.701
A-132.339 Y-3.993 Z-0.748
A-132.783 Y-3.88 Z-0.529
A-133.314 Y-3.753 Z-0.282
A-133.947 Y-3.608 Z0.001
A-133.314 Y-3.753 Z-0.282
A-132.783 Y-3.88 Z-0.529
A-132.339 Y-3.993 Z-0.748
A-132.436 Y-4.045 Z-0.746
A-132.593 Y-4.111 Z-0.738
A-132.761 Y-4.17 Z-0.73
A-133.004 Y-4.242 Z-0.72
A-133.246 Y-4.305 Z-0.713
A-133.59 Y-4.386 Z-0.708
A-133.698 Y-4.41 Z-0.707
A-134.159 Y-4.485 Z-0.678
A-134.349 Y-4.511 Z-0.672
A-134.604 Y-4.542 Z-0.67
A-135.139 Y-4.603 Z-0.665
A-135.52 Y-4.641 Z-0.66
A-135.928 Y-4.678 Z-0.655
A-136.28 Y-4.705 Z-0.649
A-136.634 Y-4.726 Z-0.643
A-137.081 Y-4.748 Z-0.637
A-137.546 Y-4.764 Z-0.632
A-138.038 Y-4.776 Z-0.629
A-138.605 Y-4.785 Z-0.628
A-139.456 Y-4.792 Z-0.629
A-140.481 Y-4.783 Z-0.628
A-141.143 Y-4.77 Z-0.63
A-141.611 Y-4.757 Z-0.633
A-142.092 Y-4.737 Z-0.637
A-142.378 Y-4.721 Z-0.639
A-142.805 Y-4.693 Z-0.643
A-143.245 Y-4.657 Z-0.648
A-143.841 Y-4.601 Z-0.657
A-144.517 Y-4.531 Z-0.669
A-144.693 Y-4.51 Z-0.671
A-144.872 Y-4.483 Z-0.674
A-145.193 Y-4.43 Z-0.685
A-145.63 Y-4.352 Z-0.7
A-145.986 Y-4.281 Z-0.712
A-146.234 Y-4.224 Z-0.718
A-146.38 Y-4.187 Z-0.72
A-146.643 Y-4.109 Z-0.724
A-146.854 Y-4.037 Z-0.728
A-147.014 Y-3.977 Z-0.733
A-147.234 Y-3.887 Z-0.744
A-147.337 Y-3.825 Z-0.739
A-147.618 Y-3.637 Z-0.731
A-147.68 Y-3.589
A-147.836 Y-3.418 Z-0.747
A-147.911 Y-3.321 Z-0.754
A-148.004 Y-3.17 Z-0.761
A-148.05 Y-3.066 Z-0.763
A-148.097 Y-2.911 Z-0.766
A-148.124 Y-2.708 Z-0.769
A-148.125 Y-2.367 Z-0.773
A-148.112 Y-2.303 Z-0.778
A-148.091 Y-2.257 Z-0.786
A-148.058 Y-2.211 Z-0.799
A-148.014 Y-2.165 Z-0.815
A-147.96 Y-2.119 Z-0.836
A-147.894 Y-2.073 Z-0.86
A-147.818 Y-2.027 Z-0.889
A-147.732 Y-1.981 Z-0.922
A-147.634 Y-1.935 Z-0.959
A-147.525 Y-1.889 Z-1.
A-147.655 Y-1.777 Z-0.951
A-147.745 Y-1.694 Z-0.917
A-147.836 Y-1.603 Z-0.882
A-147.965 Y-1.458 Z-0.834
A-148.028 Y-1.374 Z-0.81
A-148.082 Y-1.29 Z-0.789
A-148.126 Y-1.209 Z-0.773
A-148.164 Y-1.128 Z-0.758
A-148.218 Y-0.974 Z-0.738
A-148.253 Y-0.824 Z-0.725
A-148.274 Y-0.68 Z-0.717
A-148.293 Y-0.405 Z-0.71
A-148.283 Y-0.252 Z-0.713
A-148.259 Y-0.047 Z-0.722
A-148.23 Y0.095 Z-0.733
A-148.185 Y0.244 Z-0.751
A-148.149 Y0.331 Z-0.764
A-148.072 Y0.476 Z-0.793
A-148.018 Y0.558 Z-0.813
A-147.955 Y0.641 Z-0.837
A-147.874 Y0.735 Z-0.868
A-147.723 Y0.886 Z-0.925
A-147.591 Y1.003 Z-0.975
A-147.729 Y1.053 Z-0.923
A-147.852 Y1.104 Z-0.876
A-147.96 Y1.154 Z-0.835
A-148.055 Y1.205 Z-0.8
A-148.134 Y1.256 Z-0.77
A-148.199 Y1.306 Z-0.745
A-148.25 Y1.357 Z-0.726
A-148.286 Y1.408 Z-0.712
A-148.308 Y1.458 Z-0.704
A-148.315 Y1.509 Z-0.701
Y1.729
A-150.173 Y2.134 Z0.001
A-148.315 Y1.729 Z-0.701
A-146.458 Y2.134 Z0.001
A-148.315 Y1.729 Z-0.701
Y1.509
A-148.308 Y1.458 Z-0.704
A-148.286 Y1.408 Z-0.712
A-148.25 Y1.357 Z-0.726
A-148.199 Y1.306 Z-0.745
A-148.134 Y1.256 Z-0.77
A-148.055 Y1.205 Z-0.8
A-147.96 Y1.154 Z-0.835
A-147.852 Y1.104 Z-0.876
A-147.729 Y1.053 Z-0.923
A-147.591 Y1.003 Z-0.975
A-147.453 Y1.012 Z-0.938
A-147.124 Y1.039 Z-0.851
A-146.845 Y1.064 Z-0.783
A-146.592 Y1.091 Z-0.724
A-146.363 Y1.119 Z-0.676
A-146.159 Y1.147 Z-0.636
A-145.97 Y1.177 Z-0.603
A-145.802 Y1.207 Z-0.577
A-145.691 Y1.229 Z-0.563
A-145.585 Y1.251 Z-0.555
A-145.467 Y1.274 Z-0.551
A-144.933 Y1.389 Z-0.556
A-144.464 Y1.485 Z-0.563
A-144.047 Y1.562 Z-0.571
A-143.796 Y1.605 Z-0.577
A-143.549 Y1.643 Z-0.583
A-143.113 Y1.702 Z-0.594
A-142.899 Y1.727 Z-0.599
A-142.57 Y1.76 Z-0.604
A-142.268 Y1.784 Z-0.608
A-141.762 Y1.816 Z-0.613
A-141.222 Y1.841 Z-0.615
A-140.714 Y1.859 Z-0.617
A-140.004 Y1.879 Z-0.619
A-139.803 Y1.883 Z-0.621
A-139.475 Y1.884 Z-0.633
A-138.693 Y1.867 Z-0.642
A-138.19 Y1.853 Z-0.649
A-137.663 Y1.832 Z-0.657
A-137.341 Y1.814 Z-0.662
A-136.962 Y1.789 Z-0.667
A-136.625 Y1.76 Z-0.67
A-136.272 Y1.725 Z-0.674
A-135.981 Y1.692 Z-0.679
A-135.527 Y1.633 Z-0.691
A-135.069 Y1.568 Z-0.707
A-134.828 Y1.524 Z-0.709
A-134.325 Y1.429 Z-0.715
A-133.915 Y1.345 Z-0.719
A-133.756 Y1.308 Z-0.721
A-133.536 Y1.248 Z-0.731
A-133.339 Y1.187 Z-0.739
A-133.143 Y1.121 Z-0.743
A-132.842 Y1.01 Z-0.744
A-132.537 Y0.886
A-132.316 Y0.788 Z-0.746
A-132.126 Y0.685 Z-0.742
A-132.043 Y0.636 Z-0.741
A-131.877 Y0.528 Z-0.743
A-131.806 Y0.477 Z-0.745
A-131.653 Y0.35 Z-0.752
A-131.572 Y0.269 Z-0.757
A-131.47 Y0.138 Z-0.765
A-131.415 Y0.041 Z-0.769
A-131.356 Y-0.113 Z-0.774
A-131.307 Y-0.333 Z-0.778
A-131.298 Y-0.425 Z-0.782
A-131.347 Y-0.644 Z-0.774
A-131.396 Y-0.793 Z-0.77
A-131.469 Y-0.942 Z-0.767
A-131.57 Y-1.083 Z-0.764
A-131.664 Y-1.181 Z-0.761
A-131.774 Y-1.274 Z-0.758
A-131.956 Y-1.396 Z-0.752
A-132.065 Y-1.458 Z-0.748
A-132.267 Y-1.56 Z-0.742
A-132.577 Y-1.696 Z-0.736
A-132.911 Y-1.828 Z-0.731
A-133.409 Y-2.011 Z-0.726
A-133.527 Y-2.046 Z-0.719
A-133.659 Y-2.083 Z-0.71
A-133.8 Y-2.119 Z-0.704
A-134.239 Y-2.212 Z-0.703
A-134.711 Y-2.306
A-135.027 Y-2.364 Z-0.701
A-135.384 Y-2.422 Z-0.699
A-135.703 Y-2.468 Z-0.694
A-135.955 Y-2.5 Z-0.69
A-136.237 Y-2.531 Z-0.684
A-136.508 Y-2.556 Z-0.677
A-136.855 Y-2.584 Z-0.668
A-137.284 Y-2.611 Z-0.658
A-137.669 Y-2.63 Z-0.651
A-138.216 Y-2.651 Z-0.643
A-138.738 Y-2.667 Z-0.638
A-139.475 Y-2.684 Z-0.634
A-139.635 Z-0.628
A-139.851 Y-2.683 Z-0.62
A-140.501 Y-2.668 Z-0.615
A-140.993 Y-2.653 Z-0.612
A-141.478 Y-2.633 Z-0.608
A-141.831 Y-2.615 Z-0.604
A-142.265 Y-2.587 Z-0.596
A-142.573 Y-2.561 Z-0.588
A-142.88 Y-2.529 Z-0.579
A-143.3 Y-2.478 Z-0.564
A-143.551 Y-2.442 Z-0.556
A-143.967 Y-2.375 Z-0.544
A-144.408 Y-2.296 Z-0.533
A-144.787 Y-2.221 Z-0.527
A-145.128 Y-2.152 Z-0.524
A-145.274 Y-2.124 Z-0.527
A-145.421 Y-2.099 Z-0.534
A-145.568 Y-2.078 Z-0.545
A-145.708 Y-2.058 Z-0.562
A-145.847 Y-2.038 Z-0.586
A-146.066 Y-2.009 Z-0.63
A-146.291 Y-1.983 Z-0.679
A-146.539 Y-1.959 Z-0.738
A-146.823 Y-1.935 Z-0.809
A-147.158 Y-1.911 Z-0.897
A-147.525 Y-1.889 Z-1.
G0 Z5.

M9
G28 G91 Z0.
G28 X0. Y0.
M30
