(Y AXIS WRAP TEST)
(4TH AXIS TEST)
(T11  D=3.325 CR=0. TAPER=30DEG - ZMIN=-1. - CHAMFER MILL)
G90 G94 G91.1 G40 G49 G17
G21
G28 G91 Z0.
G90

(ENGRAVE2)
M5
M9
T11 M6
S5000 M3
G54
M8
G0 X-3.608 A133.947
G43 Z5. H0
G1 Z0.001 F1000.
X-3.753 A133.314 Z-0.282
X-3.88 A132.783 Z-0.529
X-3.993 A132.339 Z-0.748
X-3.96 A132.155 Z-0.701
X-3.893 A131.818 Z-0.605
X-3.809 A131.426 Z-0.482
X-3.709 A130.988 Z-0.336
X-3.54 A130.275 Z-0.086
X-3.481 A130.03 Z0.001
X-3.54 A130.275 Z-0.086
X-3.709 A130.988 Z-0.336
X-3.809 A131.426 Z-0.482
X-3.893 A131.818 Z-0.605
X-3.96 A132.155 Z-0.701
X-3.993 A132.339 Z-0.748
X-4.045 A132.436 Z-0.746
X-4.111 A132.593 Z-0.738
X-4.17 A132.761 Z-0.73
X-4.242 A133.004 Z-0.72
X-4.305 A133.246 Z-0.713
X-4.386 A133.59 Z-0.708
X-4.41 A133.698 Z-0.707
X-4.447 A133.921 Z-0.692
X-4.479 A134.122 Z-0.68
X-4.505 A134.304 Z-0.673
X-4.58 A134.936 Z-0.667
X-4.629 A135.397 Z-0.662
X-4.671 A135.843 Z-0.656
X-4.693 A136.114 Z-0.652
X-4.719 A136.506 Z-0.646
X-4.735 A136.807 Z-0.641
X-4.754 A137.237 Z-0.635
X-4.764 A137.546 Z-0.632
X-4.776 A138.038 Z-0.629
X-4.786 A138.773 Z-0.628
X-4.792 A139.383 Z-0.629
X-4.786 A140.248 Z-0.628
X-4.776 A140.865 Z-0.629
X-4.766 A141.325 Z-0.631
X-4.757 A141.607 Z-0.633
X-4.74 A142.033 Z-0.636
X-4.724 A142.335 Z-0.639
X-4.695 A142.775 Z-0.643
X-4.66 A143.212 Z-0.648
X-4.603 A143.828 Z-0.657
X-4.524 A144.583 Z-0.67
X-4.498 A144.781 Z-0.672
X-4.43 A145.19 Z-0.685
X-4.354 A145.622 Z-0.7
X-4.3 A145.896 Z-0.709
X-4.235 A146.191 Z-0.717
X-4.189 A146.373 Z-0.72
X-4.118 A146.615 Z-0.724
X-4.037 A146.854 Z-0.728
X-3.964 A147.048 Z-0.735
X-3.887 A147.234 Z-0.744
X-3.825 A147.337 Z-0.739
X-3.637 A147.618 Z-0.731
X-3.589 A147.68
X-3.418 A147.836 Z-0.747
X-3.321 A147.911 Z-0.754
X-3.17 A148.004 Z-0.761
X-3.066 A148.05 Z-0.763
X-2.911 A148.097 Z-0.766
X-2.708 A148.124 Z-0.769
X-2.367 A148.125 Z-0.773
X-2.303 A148.112 Z-0.778
X-2.257 A148.091 Z-0.786
X-2.211 A148.058 Z-0.799
X-2.165 A148.014 Z-0.815
X-2.119 A147.96 Z-0.836
X-2.073 A147.894 Z-0.86
X-2.027 A147.818 Z-0.889
X-1.981 A147.732 Z-0.922
X-1.935 A147.634 Z-0.959
X-1.889 A147.525 Z-1.
X-1.765 A147.669 Z-0.945
X-1.607 A147.833 Z-0.883
X-1.521 A147.912 Z-0.854
X-1.437 A147.981 Z-0.827
X-1.353 A148.042 Z-0.805
X-1.209 A148.126 Z-0.773
X-1.123 A148.166 Z-0.758
X-1.038 A148.198 Z-0.745
X-0.889 A148.24 Z-0.73
X-0.745 A148.266 Z-0.72
X-0.537 A148.286 Z-0.712
X-0.383 A148.293 Z-0.71
X-0.111 A148.268 Z-0.719
X0.032 A148.245 Z-0.728
X0.181 A148.206 Z-0.742
X0.334 A148.148 Z-0.765
X0.478 A148.071 Z-0.793
X0.562 A148.016 Z-0.814
X0.651 A147.947 Z-0.84
X0.742 A147.867 Z-0.871
X0.892 A147.716 Z-0.928
X1.003 A147.591 Z-0.975
X1.053 A147.729 Z-0.923
X1.104 A147.852 Z-0.876
X1.154 A147.96 Z-0.835
X1.205 A148.055 Z-0.8
X1.256 A148.134 Z-0.77
X1.306 A148.199 Z-0.745
X1.357 A148.25 Z-0.726
X1.408 A148.286 Z-0.712
X1.458 A148.308 Z-0.704
X1.509 A148.315 Z-0.701
X1.729
X2.134 A146.458 Z0.001
X1.729 A148.315 Z-0.701
X2.134 A150.173 Z0.001
X1.729 A148.315 Z-0.701
X1.509
X1.458 A148.308 Z-0.704
X1.408 A148.286 Z-0.712
X1.357 A148.25 Z-0.726
X1.306 A148.199 Z-0.745
X1.256 A148.134 Z-0.77
X1.205 A148.055 Z-0.8
X1.154 A147.96 Z-0.835
X1.104 A147.852 Z-0.876
X1.053 A147.729 Z-0.923
X1.003 A147.591 Z-0.975
X1.027 A147.265 Z-0.888
X1.055 A146.942 Z-0.806
X1.081 A146.685 Z-0.745
X1.108 A146.45 Z-0.694
X1.135 A146.24 Z-0.651
X1.163 A146.054 Z-0.617
X1.194 A145.873 Z-0.587
X1.224 A145.717 Z-0.566
X1.248 A145.598 Z-0.555
X1.27 A145.487 Z-0.551
X1.305 A145.325 Z-0.552
X1.438 A144.698 Z-0.559
X1.494 A144.417 Z-0.563
X1.57 A144.002 Z-0.572
X1.644 A143.547 Z-0.583
X1.702 A143.113 Z-0.594
X1.727 A142.899 Z-0.599
X1.76 A142.563 Z-0.604
X1.785 A142.263 Z-0.609
X1.803 A141.998 Z-0.611
X1.819 A141.7 Z-0.613
X1.843 A141.186 Z-0.616
X1.862 A140.633 Z-0.618
X1.882 A139.867 Z-0.62
X1.884 A139.648 Z-0.626
X1.882 A139.392 Z-0.634
X1.866 A138.663 Z-0.643
X1.848 A138.047 Z-0.652
X1.828 A137.599 Z-0.658
X1.812 A137.298 Z-0.663
X1.789 A136.962 Z-0.667
X1.76 A136.625 Z-0.67
X1.743 A136.45 Z-0.672
X1.692 A135.989 Z-0.679
X1.654 A135.681 Z-0.686
X1.589 A135.211 Z-0.701
X1.558 A135.015 Z-0.707
X1.483 A134.604 Z-0.711
X1.378 A134.076 Z-0.718
X1.311 A133.768 Z-0.721
X1.271 A133.615 Z-0.727
X1.216 A133.433 Z-0.735
X1.155 A133.242 Z-0.741
X1.086 A133.043 Z-0.744
X0.97 A132.741
X0.841 A132.434
X0.77 A132.276 Z-0.746
X0.645 A132.057 Z-0.741
X0.56 A131.924 Z-0.742
X0.423 A131.738 Z-0.748
X0.336 A131.638 Z-0.753
X0.232 A131.54 Z-0.76
X0.119 A131.458 Z-0.766
X-0.01 A131.393 Z-0.771
X-0.155 A131.345 Z-0.775
X-0.333 A131.307 Z-0.778
X-0.39 A131.3 Z-0.78
X-0.443 A131.302 Z-0.781
X-0.655 A131.35 Z-0.774
X-0.802 A131.4 Z-0.77
X-0.953 A131.476 Z-0.767
X-1.102 A131.587 Z-0.763
X-1.213 A131.699 Z-0.76
X-1.328 A131.848 Z-0.755
X-1.396 A131.956 Z-0.752
X-1.458 A132.065 Z-0.748
X-1.561 A132.27 Z-0.742
X-1.65 A132.468 Z-0.738
X-1.783 A132.793 Z-0.732
X-1.919 A133.155 Z-0.728
X-2.02 A133.432 Z-0.726
X-2.103 A133.737 Z-0.706
X-2.14 A133.896 Z-0.703
X-2.221 A134.281
X-2.306 A134.711
X-2.387 A135.163 Z-0.701
X-2.443 A135.521 Z-0.697
X-2.482 A135.81 Z-0.693
X-2.509 A136.031 Z-0.689
X-2.538 A136.31 Z-0.682
X-2.574 A136.729 Z-0.671
X-2.6 A137.096 Z-0.662
X-2.618 A137.428 Z-0.655
X-2.633 A137.73 Z-0.649
X-2.653 A138.261 Z-0.642
X-2.671 A138.915 Z-0.637
X-2.684 A139.482 Z-0.634
X-2.682 A139.898 Z-0.619
X-2.679 A140.046 Z-0.617
X-2.658 A140.816 Z-0.614
X-2.639 A141.347 Z-0.609
X-2.615 A141.831 Z-0.604
X-2.585 A142.288 Z-0.595
X-2.559 A142.587 Z-0.588
X-2.529 A142.88 Z-0.579
X-2.502 A143.116 Z-0.571
X-2.443 A143.545 Z-0.556
X-2.402 A143.81 Z-0.548
X-2.332 A144.216 Z-0.537
X-2.291 A144.434 Z-0.533
X-2.204 A144.874 Z-0.526
X-2.133 A145.222 Z-0.525
X-2.108 A145.366 Z-0.531
X-2.085 A145.516 Z-0.541
X-2.068 A145.638 Z-0.553
X-2.048 A145.777 Z-0.573
X-2.028 A145.921 Z-0.6
X-2.002 A146.126 Z-0.643
X-1.976 A146.355 Z-0.694
X-1.953 A146.608 Z-0.755
X-1.93 A146.89 Z-0.826
X-1.909 A147.197 Z-0.908
X-1.889 A147.525 Z-1.
G0 Z5.
X-3.608 A-109.851
G1 Z0.001 F1000.
X-3.753 A-110.485 Z-0.282
X-3.88 A-111.015 Z-0.529
X-3.993 A-111.459 Z-0.748
X-3.96 A-111.643 Z-0.701
X-3.893 A-111.98 Z-0.605
X-3.809 A-112.371 Z-0.483
X-3.709 A-112.81 Z-0.336
X-3.54 A-113.523 Z-0.086
X-3.481 A-113.768 Z0.001
X-3.54 A-113.523 Z-0.086
X-3.709 A-112.81 Z-0.336
X-3.809 A-112.371 Z-0.483
X-3.893 A-111.98 Z-0.605
X-3.96 A-111.643 Z-0.701
X-3.993 A-111.459 Z-0.748
X-4.045 A-111.362 Z-0.745
X-4.11 A-111.21 Z-0.738
X-4.166 A-111.05 Z-0.73
X-4.207 A-110.918 Z-0.724
X-4.275 A-110.67 Z-0.716
X-4.335 A-110.429 Z-0.71
X-4.41 A-110.1 Z-0.707
X-4.485 A-109.64 Z-0.678
X-4.511 A-109.449 Z-0.672
X-4.542 A-109.193 Z-0.67
X-4.603 A-108.659 Z-0.665
X-4.642 A-108.271 Z-0.66
X-4.678 A-107.87 Z-0.655
X-4.705 A-107.518 Z-0.649
X-4.726 A-107.165 Z-0.643
X-4.748 A-106.717 Z-0.637
X-4.764 A-106.252 Z-0.632
X-4.776 A-105.761 Z-0.629
X-4.785 A-105.193 Z-0.628
X-4.792 A-104.342 Z-0.629
X-4.783 A-103.318 Z-0.628
X-4.771 A-102.658 Z-0.63
X-4.757 A-102.187 Z-0.633
X-4.737 A-101.706 Z-0.637
X-4.721 A-101.42 Z-0.639
X-4.693 A-100.993 Z-0.643
X-4.657 A-100.553 Z-0.648
X-4.601 A-99.955 Z-0.657
X-4.524 A-99.209 Z-0.67
X-4.51 A-99.105 Z-0.671
X-4.483 A-98.925 Z-0.674
X-4.43 A-98.608 Z-0.685
X-4.353 A-98.171 Z-0.7
X-4.281 A-97.811 Z-0.712
X-4.225 A-97.567 Z-0.718
X-4.186 A-97.415 Z-0.72
X-4.108 A-97.151 Z-0.724
X-4.037 A-96.944 Z-0.728
X-3.978 A-96.786 Z-0.733
X-3.887 A-96.565 Z-0.744
X-3.8 A-96.422 Z-0.738
X-3.634 A-96.175 Z-0.731
X-3.585 A-96.113
X-3.418 A-95.962 Z-0.747
X-3.321 A-95.887 Z-0.754
X-3.17 A-95.794 Z-0.761
X-3.066 A-95.748 Z-0.763
X-2.911 A-95.702 Z-0.766
X-2.708 A-95.674 Z-0.769
X-2.367 A-95.673 Z-0.773
X-2.303 A-95.685 Z-0.778
X-2.257 A-95.707 Z-0.786
X-2.211 A-95.74 Z-0.798
X-2.165 A-95.784 Z-0.815
X-2.119 A-95.838 Z-0.835
X-2.073 A-95.904 Z-0.86
X-2.027 A-95.98 Z-0.889
X-1.981 A-96.066 Z-0.922
X-1.935 A-96.164 Z-0.959
X-1.889 A-96.273 Z-1.
X-1.778 A-96.144 Z-0.951
X-1.694 A-96.053 Z-0.916
X-1.603 A-95.962 Z-0.882
X-1.458 A-95.833 Z-0.834
X-1.374 A-95.771 Z-0.81
X-1.29 A-95.717 Z-0.79
X-1.272 A-95.706 Z-0.785
X-1.128 A-95.634 Z-0.758
X-0.974 A-95.58 Z-0.738
X-0.824 A-95.545 Z-0.725
X-0.68 A-95.524 Z-0.717
X-0.405 A-95.505 Z-0.71
X-0.252 A-95.515 Z-0.713
X-0.046 A-95.539 Z-0.722
X0.096 A-95.568 Z-0.733
X0.243 A-95.613 Z-0.75
X0.331 A-95.649 Z-0.764
X0.476 A-95.726 Z-0.793
X0.558 A-95.78 Z-0.813
X0.64 A-95.842 Z-0.837
X0.733 A-95.923 Z-0.867
X0.886 A-96.075 Z-0.925
X1.003 A-96.207 Z-0.975
X1.053 A-96.069 Z-0.923
X1.104 A-95.946 Z-0.876
X1.154 A-95.838 Z-0.835
X1.205 A-95.743 Z-0.8
X1.256 A-95.664 Z-0.77
X1.306 A-95.598 Z-0.745
X1.357 A-95.548 Z-0.726
X1.408 A-95.511 Z-0.712
X1.458 A-95.49 Z-0.704
X1.509 A-95.483 Z-0.701
X1.729
X2.134 A-93.625 Z0.001
X1.729 A-95.483 Z-0.701
X2.134 A-97.34 Z0.001
X1.729 A-95.483 Z-0.701
X1.509
X1.458 A-95.49 Z-0.704
X1.408 A-95.511 Z-0.712
X1.357 A-95.548 Z-0.726
X1.306 A-95.598 Z-0.745
X1.256 A-95.664 Z-0.77
X1.205 A-95.743 Z-0.8
X1.154 A-95.838 Z-0.835
X1.104 A-95.946 Z-0.876
X1.053 A-96.069 Z-0.923
X1.003 A-96.207 Z-0.975
X1.027 A-96.533 Z-0.888
X1.055 A-96.856 Z-0.806
X1.081 A-97.113 Z-0.745
X1.107 A-97.346 Z-0.694
X1.136 A-97.56 Z-0.651
X1.163 A-97.746 Z-0.617
X1.194 A-97.925 Z-0.587
X1.224 A-98.081 Z-0.566
X1.248 A-98.2 Z-0.555
X1.27 A-98.311 Z-0.551
X1.305 A-98.473 Z-0.552
X1.438 A-99.101 Z-0.559
X1.494 A-99.38 Z-0.563
X1.57 A-99.794 Z-0.572
X1.642 A-100.241 Z-0.582
X1.679 A-100.5 Z-0.589
X1.727 A-100.899 Z-0.599
X1.76 A-101.236 Z-0.604
X1.785 A-101.54 Z-0.609
X1.803 A-101.801 Z-0.611
X1.819 A-102.098 Z-0.613
X1.843 A-102.612 Z-0.616
X1.862 A-103.165 Z-0.618
X1.882 A-103.93 Z-0.62
X1.884 A-104.15 Z-0.626
X1.882 A-104.405 Z-0.634
X1.866 A-105.135 Z-0.643
X1.848 A-105.751 Z-0.652
X1.828 A-106.198 Z-0.658
X1.812 A-106.501 Z-0.663
X1.789 A-106.836 Z-0.667
X1.76 A-107.173 Z-0.67
X1.743 A-107.348 Z-0.672
X1.693 A-107.802 Z-0.679
X1.654 A-108.112 Z-0.686
X1.589 A-108.587 Z-0.701
X1.558 A-108.783 Z-0.707
X1.483 A-109.192 Z-0.711
X1.379 A-109.718 Z-0.718
X1.314 A-110.018 Z-0.72
X1.273 A-110.174 Z-0.726
X1.216 A-110.365 Z-0.735
X1.155 A-110.557 Z-0.741
X1.086 A-110.755 Z-0.744
X0.971 A-111.057
X0.841 A-111.364
X0.77 A-111.521 Z-0.746
X0.65 A-111.733 Z-0.741
X0.566 A-111.865 Z-0.742
X0.477 A-111.992 Z-0.745
X0.34 A-112.155 Z-0.753
X0.232 A-112.259 Z-0.76
X0.119 A-112.34 Z-0.766
X-0.009 A-112.405 Z-0.771
X-0.114 A-112.442 Z-0.774
X-0.289 A-112.483 Z-0.777
X-0.39 A-112.498 Z-0.78
X-0.443 A-112.496 Z-0.781
X-0.655 A-112.448 Z-0.774
X-0.802 A-112.398 Z-0.77
X-0.953 A-112.322 Z-0.767
X-1.102 A-112.211 Z-0.763
X-1.213 A-112.1 Z-0.76
X-1.329 A-111.949 Z-0.755
X-1.396 A-111.843 Z-0.752
X-1.458 A-111.733 Z-0.748
X-1.565 A-111.52 Z-0.742
X-1.65 A-111.33 Z-0.738
X-1.783 A-111.005 Z-0.732
X-1.919 A-110.643 Z-0.728
X-2.02 A-110.366 Z-0.726
X-2.103 A-110.061 Z-0.706
X-2.14 A-109.902 Z-0.703
X-2.221 A-109.517
X-2.306 A-109.088
X-2.387 A-108.634 Z-0.701
X-2.443 A-108.278 Z-0.697
X-2.482 A-107.989 Z-0.693
X-2.509 A-107.766 Z-0.689
X-2.538 A-107.489 Z-0.682
X-2.574 A-107.069 Z-0.671
X-2.6 A-106.695 Z-0.662
X-2.62 A-106.349 Z-0.654
X-2.643 A-105.826 Z-0.646
X-2.66 A-105.31 Z-0.64
X-2.673 A-104.786 Z-0.636
X-2.684 A-104.316 Z-0.634
X-2.682 A-103.9 Z-0.619
X-2.679 A-103.752 Z-0.617
X-2.658 A-102.982 Z-0.614
X-2.639 A-102.451 Z-0.609
X-2.615 A-101.967 Z-0.604
X-2.585 A-101.51 Z-0.595
X-2.559 A-101.211 Z-0.588
X-2.529 A-100.918 Z-0.579
X-2.502 A-100.682 Z-0.571
X-2.443 A-100.254 Z-0.556
X-2.402 A-99.993 Z-0.548
X-2.363 A-99.761 Z-0.542
X-2.291 A-99.362 Z-0.533
X-2.204 A-98.923 Z-0.526
X-2.134 A-98.578 Z-0.525
X-2.108 A-98.43 Z-0.531
X-2.085 A-98.281 Z-0.541
X-2.068 A-98.159 Z-0.553
X-2.048 A-98.02 Z-0.573
X-2.028 A-97.877 Z-0.6
X-2.002 A-97.672 Z-0.643
X-1.977 A-97.445 Z-0.693
X-1.953 A-97.189 Z-0.755
X-1.93 A-96.904 Z-0.827
X-1.908 A-96.597 Z-0.909
X-1.889 A-96.273 Z-1.
G0 Z5.
X-3.052 A124.591
G1 Z0.001 F1000.
X-2.612 A122.577 Z-0.76
X-3.052 A120.563 Z0.001
X-2.612 A122.577 Z-0.76
X0.103
X0.243 A122.574 Z-0.762
X0.379 A122.562 Z-0.764
X0.511 A122.533 Z-0.769
X0.636 A122.48 Z-0.776
X0.763 A122.399 Z-0.785
X0.906 A122.283 Z-0.799
X1.026 A122.138
X1.076 A122.065 Z-0.801
X1.151 A121.923 Z-0.807
X1.206 A121.798 Z-0.809
X1.292 A121.58
X1.361 A121.383 Z-0.811
X1.426 A121.137 Z-0.804
X1.489 A120.873 Z-0.8
X1.533 A120.65 Z-0.795
X1.565 A120.462 Z-0.789
X1.616 A120.116 Z-0.775
X1.678 A119.644 Z-0.757
X1.708 A119.368 Z-0.744
X1.741 A119.007 Z-0.734
X1.784 A118.485 Z-0.719
X1.813 A118.058 Z-0.706
X1.831 A117.701 Z-0.694
X1.846 A117.317 Z-0.683
X1.858 A116.833 Z-0.673
X1.864 A116.515 Z-0.669
X1.861 A115.894 Z-0.648
X1.857 A115.503 Z-0.638
X1.841 A114.836 Z-0.631
X1.818 A114.162 Z-0.622
X1.794 A113.662 Z-0.613
X1.776 A113.37 Z-0.607
X1.742 A112.925 Z-0.595
X1.721 A112.699 Z-0.588
X1.692 A112.443 Z-0.578
X1.664 A112.213 Z-0.568
X1.635 A112. Z-0.559
X1.584 A111.664 Z-0.543
X1.541 A111.408 Z-0.531
X1.447 A110.886 Z-0.504
X1.335 A110.324 Z-0.475
X1.306 A110.203 Z-0.473
X1.28 A110.105 Z-0.476
X1.187 A109.768 Z-0.488
X1.16 A109.652 Z-0.497
X1.131 A109.513 Z-0.513
X1.102 A109.35 Z-0.536
X1.076 A109.186 Z-0.564
X1.05 A108.996 Z-0.601
X1.022 A108.769 Z-0.65
X1. A108.569 Z-0.697
X0.974 A108.295 Z-0.766
X0.948 A107.981 Z-0.851
X0.928 A107.724 Z-0.924
X0.975 A107.604 Z-0.878
X1.022 A107.496 Z-0.838
X1.069 A107.4 Z-0.802
X1.116 A107.318 Z-0.771
X1.162 A107.248 Z-0.744
X1.209 A107.191 Z-0.723
X1.256 A107.147 Z-0.706
X1.303 A107.115 Z-0.694
X1.35 A107.096 Z-0.687
X1.396 A107.089 Z-0.684
X1.738
X2.134 A108.902 Z0.001
X1.738 A107.089 Z-0.684
X2.134 A105.277 Z0.001
X1.738 A107.089 Z-0.684
X1.396
X1.35 A107.096 Z-0.687
X1.303 A107.115 Z-0.694
X1.256 A107.147 Z-0.706
X1.209 A107.191 Z-0.723
X1.162 A107.248 Z-0.744
X1.116 A107.318 Z-0.771
X1.069 A107.4 Z-0.802
X1.022 A107.496 Z-0.838
X0.975 A107.604 Z-0.878
X0.928 A107.724 Z-0.924
X0.867 A107.664 Z-0.901
X0.783 A107.589 Z-0.873
X0.699 A107.525 Z-0.849
X0.619 A107.473 Z-0.829
X0.482 A107.403 Z-0.803
X0.4 A107.371 Z-0.791
X0.317 A107.346 Z-0.781
X0.176 A107.316 Z-0.77
X0.04 A107.3 Z-0.764
X-0.154 A107.292 Z-0.761
X-0.22 A107.291 Z-0.76
X-2.612
X-3.052 A105.277 Z0.001
X-2.612 A107.291 Z-0.76
X-3.052 A109.305 Z0.001
G0 Z5.
A99.144
G1 Z0.001 F1000.
X-2.612 A97.13 Z-0.76
X-3.052 A95.116 Z0.001
X-2.612 A97.13 Z-0.76
X1.694
X2.134 A95.116 Z0.001
X1.694 A97.13 Z-0.76
X2.134 A99.144 Z0.001
G0 Z5.
X-3.052 A88.849
G1 Z0.001 F1000.
X-2.612 A86.834 Z-0.76
X-3.052 A84.82 Z0.001
X-2.612 A86.834 Z-0.76
X3.667
X4.106 A84.82 Z0.001
X3.667 A86.834 Z-0.76
X4.106 A88.849 Z0.001
G0 Z5.
X-3.052 A24.212
G1 Z0.001 F1000.
X-2.578 A22.041 Z-0.819
X-3.052 A19.87 Z0.001
X-2.578 A22.041 Z-0.819
X3.291 Z-0.821
X3.334 Z-0.829
X3.378 Z-0.844
X3.421 Z-0.865
X3.464 Z-0.891
X3.508 Z-0.924
X3.551 Z-0.961
X3.577 A21.824 Z-0.917
X3.599 A21.607 Z-0.878
X3.619 A21.39 Z-0.843
X3.636 A21.173 Z-0.813
X3.651 A20.955 Z-0.788
X3.663 A20.738 Z-0.767
X3.672 A20.521 Z-0.751
X3.679 A20.304 Z-0.74
X3.683 A20.087 Z-0.733
X3.684 A10.996 Z-0.731
X3.262 A9.06 Z0.001
X3.684 A10.996 Z-0.731
X4.106 A9.06 Z0.001
X3.684 A10.996 Z-0.731
X3.683 A20.087 Z-0.733
X3.679 A20.304 Z-0.74
X3.672 A20.521 Z-0.751
X3.663 A20.738 Z-0.767
X3.651 A20.955 Z-0.788
X3.636 A21.173 Z-0.813
X3.619 A21.39 Z-0.843
X3.599 A21.607 Z-0.878
X3.577 A21.824 Z-0.917
X3.551 A22.041 Z-0.961
X3.577 A22.258 Z-0.917
X3.599 A22.475 Z-0.878
X3.619 A22.692 Z-0.843
X3.636 A22.909 Z-0.813
X3.651 A23.126 Z-0.788
X3.663 A23.344 Z-0.767
X3.672 A23.561 Z-0.751
X3.679 A23.778 Z-0.74
X3.683 A23.995 Z-0.733
X3.684 A33.131 Z-0.731
X4.106 A35.067 Z0.001
X3.684 A33.131 Z-0.731
X3.262 A35.067 Z0.001
G0 Z5.
X-3.052 A-68.177
G1 Z0.001 F1000.
X-2.612 A-70.192 Z-0.76
X-3.052 A-72.206 Z0.001
X-2.612 A-70.192 Z-0.76
X0.232
X0.421 A-70.212 Z-0.763
X0.556 A-70.245 Z-0.766
X0.682 A-70.303 Z-0.771
X0.761 A-70.357 Z-0.775
X0.856 A-70.448 Z-0.779
X0.931 A-70.539 Z-0.784
X1.034 A-70.692 Z-0.792
X1.116 A-70.834 Z-0.802
X1.204 A-71.002 Z-0.816
X1.306 A-71.279 Z-0.815
X1.378 A-71.495 Z-0.813
X1.422 A-71.644 Z-0.808
X1.469 A-71.821 Z-0.797
X1.507 A-71.998 Z-0.788
X1.541 A-72.191 Z-0.782
X1.606 A-72.604 Z-0.773
X1.634 A-72.795 Z-0.768
X1.69 A-73.256 Z-0.747
X1.736 A-73.675 Z-0.73
X1.775 A-74.089 Z-0.717
X1.798 A-74.387 Z-0.708
X1.818 A-74.718 Z-0.698
X1.836 A-75.106 Z-0.686
X1.851 A-75.565 Z-0.676
X1.862 A-76.076 Z-0.667
X1.866 A-76.393 Z-0.662
X1.862 A-77.208 Z-0.636
X1.86 A-77.333 Z-0.634
X1.845 A-77.969 Z-0.626
X1.828 A-78.488 Z-0.618
X1.807 A-78.951 Z-0.611
X1.79 A-79.228 Z-0.606
X1.763 A-79.602 Z-0.599
X1.738 A-79.885 Z-0.592
X1.697 A-80.27 Z-0.58
X1.659 A-80.581 Z-0.569
X1.588 A-81.108 Z-0.545
X1.546 A-81.388 Z-0.533
X1.438 A-82.005 Z-0.515
X1.363 A-82.401 Z-0.507
X1.307 A-82.68
X1.282 A-82.821 Z-0.513
X1.257 A-82.973 Z-0.526
X1.234 A-83.132 Z-0.545
X1.211 A-83.303 Z-0.571
X1.188 A-83.491 Z-0.605
X1.166 A-83.702 Z-0.648
X1.143 A-83.942 Z-0.703
X1.12 A-84.221 Z-0.772
X1.097 A-84.538 Z-0.856
X1.076 A-84.876 Z-0.951
X1.072 A-84.957 Z-0.974
X1.119 A-85.064 Z-0.934
X1.165 A-85.161 Z-0.897
X1.212 A-85.246 Z-0.865
X1.258 A-85.319 Z-0.837
X1.305 A-85.381 Z-0.814
X1.352 A-85.432 Z-0.795
X1.398 A-85.472 Z-0.78
X1.445 A-85.5 Z-0.769
X1.491 A-85.517 Z-0.762
X1.538 A-85.523 Z-0.76
X3.667
X4.106 A-87.537 Z0.001
X3.667 A-85.523 Z-0.76
X4.106 A-83.509 Z0.001
X3.667 A-85.523 Z-0.76
X1.538
X1.491 A-85.517 Z-0.762
X1.445 A-85.5 Z-0.769
X1.398 A-85.472 Z-0.78
X1.352 A-85.432 Z-0.795
X1.305 A-85.381 Z-0.814
X1.258 A-85.319 Z-0.837
X1.212 A-85.246 Z-0.865
X1.165 A-85.161 Z-0.897
X1.119 A-85.064 Z-0.934
X1.072 A-84.957 Z-0.974
X0.957 A-85.084 Z-0.926
X0.898 A-85.133 Z-0.908
X0.677 A-85.282 Z-0.851
X0.533 A-85.365 Z-0.82
X0.432 A-85.413 Z-0.802
X0.33 A-85.452 Z-0.787
X0.186 A-85.488 Z-0.773
X0.048 A-85.508 Z-0.766
X-0.126 A-85.52 Z-0.761
X-0.215 A-85.523 Z-0.76
X-2.612
X-3.052 A-87.537 Z0.001
X-2.612 A-85.523 Z-0.76
X-3.052 A-83.509 Z0.001
G0 Z5.
A-119.341
G1 Z0.001 F1000.
X-2.659 A-121.143 Z-0.68
X-3.052 A-122.944 Z0.001
X-2.659 A-121.143 Z-0.68
X-2.244 A-121.149 Z-0.682
X-2.198 A-121.167 Z-0.689
X-2.153 A-121.198 Z-0.701
X-2.107 A-121.24 Z-0.717
X-2.061 A-121.295 Z-0.738
X-2.015 A-121.362 Z-0.763
X-1.97 A-121.442 Z-0.793
X-1.924 A-121.534 Z-0.828
X-1.878 A-121.637 Z-0.867
X-1.832 A-121.753 Z-0.911
X-1.76 A-121.704 Z-0.892
X-1.573 A-121.586 Z-0.848
X-1.424 A-121.504 Z-0.817
X-1.317 A-121.457 Z-0.799
X-1.214 A-121.421 Z-0.785
X-1.111 A-121.395 Z-0.775
X-0.965 A-121.372 Z-0.767
X-0.78 A-121.359 Z-0.762
X-0.645 A-121.355 Z-0.76
X1.694
X2.134 A-123.369 Z0.001
X1.694 A-121.355 Z-0.76
X2.134 A-119.341 Z0.001
X1.694 A-121.355 Z-0.76
X-0.645
X-0.78 A-121.359 Z-0.762
X-0.965 A-121.372 Z-0.767
X-1.111 A-121.395 Z-0.775
X-1.214 A-121.421 Z-0.785
X-1.317 A-121.457 Z-0.799
X-1.424 A-121.504 Z-0.817
X-1.573 A-121.586 Z-0.848
X-1.76 A-121.704 Z-0.892
X-1.832 A-121.753 Z-0.911
X-1.851 A-121.988 Z-0.841
X-1.876 A-122.288 Z-0.758
X-1.9 A-122.547 Z-0.69
X-1.927 A-122.793 Z-0.63
X-1.954 A-123.009 Z-0.581
X-1.98 A-123.192 Z-0.544
X-2.006 A-123.355 Z-0.515
X-2.032 A-123.499 Z-0.493
X-2.059 A-123.636 Z-0.477
X-2.085 A-123.754 Z-0.468
X-2.112 A-123.862 Z-0.464
X-2.179 A-124.128 Z-0.465
X-2.239 A-124.39 Z-0.471
X-2.32 A-124.772 Z-0.486
X-2.393 A-125.147 Z-0.504
X-2.458 A-125.502 Z-0.52
X-2.488 A-125.689 Z-0.531
X-2.539 A-126.036 Z-0.551
X-2.577 A-126.316 Z-0.564
X-2.598 A-126.484 Z-0.572
X-2.631 A-126.775 Z-0.582
X-2.649 A-126.948 Z-0.587
X-2.679 A-127.289 Z-0.595
X-2.693 A-127.474 Z-0.598
X-2.717 A-127.854 Z-0.605
X-2.736 A-128.225 Z-0.611
X-2.755 A-128.759 Z-0.619
X-2.777 A-129.57 Z-0.632
X-2.78 A-129.771 Z-0.637
X-2.784 A-130.508 Z-0.662
X-2.782 A-130.67 Z-0.665
X-2.771 A-131.187 Z-0.673
X-2.761 A-131.488 Z-0.68
X-2.748 A-131.817 Z-0.689
X-2.729 A-132.154 Z-0.698
X-2.702 A-132.528 Z-0.709
X-2.661 A-132.997 Z-0.723
X-2.604 A-133.566 Z-0.742
X-2.592 A-133.681 Z-0.746
X-2.567 A-133.881 Z-0.75
X-2.533 A-134.121 Z-0.762
X-2.49 A-134.4 Z-0.777
X-2.444 A-134.666 Z-0.789
X-2.399 A-134.888 Z-0.794
X-2.34 A-135.145 Z-0.799
X-2.272 A-135.409 Z-0.805
X-2.193 A-135.635 Z-0.802
X-2.114 A-135.834
X-2.047 A-135.971 Z-0.801
X-1.97 A-136.101 Z-0.797
X-1.837 A-136.285 Z-0.789
X-1.808 A-136.321 Z-0.786
X-1.76 A-136.364 Z-0.781
X-1.582 A-136.47 Z-0.779
X-1.447 A-136.528 Z-0.775
X-1.278 A-136.572 Z-0.768
X-1.113 A-136.591 Z-0.762
X1.694 A-136.597 Z-0.76
X2.134 A-138.611 Z0.001
X1.694 A-136.597 Z-0.76
X2.134 A-134.582 Z0.001
G0 Z5.
X-3.052 A-145.236
G1 Z0.001 F1000.
X-2.578 A-147.407 Z-0.819
X-3.052 A-149.578 Z0.001
X-2.578 A-147.407 Z-0.819
X0.322
X0.365 A-147.411 Z-0.821
X0.407 A-147.424 Z-0.826
X0.449 A-147.446 Z-0.834
X0.491 A-147.476 Z-0.846
X0.533 A-147.515 Z-0.86
X0.576 A-147.562 Z-0.878
X0.618 A-147.618 Z-0.899
X0.66 A-147.683 Z-0.924
X0.702 A-147.757 Z-0.952
X0.745 A-147.839 Z-0.983
X0.787 A-147.757 Z-0.952
X0.829 A-147.683 Z-0.924
X0.871 A-147.618 Z-0.899
X0.914 A-147.562 Z-0.878
X0.956 A-147.515 Z-0.86
X0.998 A-147.476 Z-0.846
X1.04 A-147.446 Z-0.834
X1.083 A-147.424 Z-0.826
X1.125 A-147.411 Z-0.821
X3.633 A-147.407 Z-0.819
X4.106 A-149.578 Z0.001
X3.633 A-147.407 Z-0.819
X4.106 A-145.236 Z0.001
X3.633 A-147.407 Z-0.819
X1.125 A-147.411 Z-0.821
X1.083 A-147.424 Z-0.826
X1.04 A-147.446 Z-0.834
X0.998 A-147.476 Z-0.846
X0.956 A-147.515 Z-0.86
X0.914 A-147.562 Z-0.878
X0.871 A-147.618 Z-0.899
X0.829 A-147.683 Z-0.924
X0.787 A-147.757 Z-0.952
X0.745 A-147.839 Z-0.983
A-148.099 Z-0.92
A-148.36 Z-0.863
A-148.621 Z-0.815
A-148.795 Z-0.788
A-148.969 Z-0.766
A-149.143 Z-0.749
A-149.317 Z-0.737
A-149.491 Z-0.731
A-166.632
A-166.806 Z-0.734
A-166.98 Z-0.742
A-167.154 Z-0.757
A-167.328 Z-0.777
A-167.502 Z-0.801
A-167.763 Z-0.846
A-168.024 Z-0.9
A-168.372 Z-0.983
X0.787 A-168.454 Z-0.952
X0.829 A-168.527 Z-0.924
X0.871 A-168.592 Z-0.899
X0.914 A-168.648 Z-0.878
X0.956 A-168.695 Z-0.86
X0.998 A-168.734 Z-0.846
X1.04 A-168.764 Z-0.834
X1.083 A-168.786 Z-0.826
X1.125 A-168.799 Z-0.821
X1.167 A-168.803 Z-0.82
X3.633
X4.106 A-166.632 Z0.001
X3.633 A-168.803 Z-0.82
X4.106 A-170.974 Z0.001
X3.633 A-168.803 Z-0.82
X1.167
X1.125 A-168.799 Z-0.821
X1.083 A-168.786 Z-0.826
X1.04 A-168.764 Z-0.834
X0.998 A-168.734 Z-0.846
X0.956 A-168.695 Z-0.86
X0.914 A-168.648 Z-0.878
X0.871 A-168.592 Z-0.899
X0.829 A-168.527 Z-0.924
X0.787 A-168.454 Z-0.952
X0.745 A-168.372 Z-0.983
X0.702 A-168.454 Z-0.952
X0.66 A-168.527 Z-0.924
X0.618 A-168.592 Z-0.899
X0.576 A-168.648 Z-0.878
X0.533 A-168.695 Z-0.86
X0.491 A-168.734 Z-0.846
X0.449 A-168.764 Z-0.834
X0.407 A-168.786 Z-0.826
X0.365 A-168.799 Z-0.821
X-2.578 A-168.803 Z-0.82
X-3.052 A-170.974 Z0.001
X-2.578 A-168.803 Z-0.82
X-3.052 A-166.632 Z0.001
G0 Z5.
X-1.504 A-38.164
G1 Z0.001 F1000.
X-1.597 A-37.53 Z-0.195
X-1.727 A-36.622 Z-0.472
X-1.803 A-36.07 Z-0.634
X-1.857 A-35.656 Z-0.75
X-1.773 A-35.423 Z-0.62
X-1.658 A-35.089 Z-0.443
X-1.507 A-34.625 Z-0.212
X-1.367 A-34.181 Z0.001
X-1.507 A-34.625 Z-0.212
X-1.658 A-35.089 Z-0.443
X-1.773 A-35.423 Z-0.62
X-1.857 A-35.656 Z-0.75
X-1.913 A-35.555
X-2. A-35.368 Z-0.747
X-2.058 A-35.217 Z-0.745
X-2.144 A-34.955 Z-0.738
X-2.223 A-34.675 Z-0.733
X-2.3 A-34.371 Z-0.728
X-2.397 A-33.958 Z-0.724
X-2.415 A-33.881
X-2.456 A-33.64 Z-0.707
X-2.485 A-33.455 Z-0.698
X-2.551 A-32.943 Z-0.689
X-2.616 A-32.391 Z-0.681
X-2.66 A-31.972 Z-0.673
X-2.7 A-31.526 Z-0.664
X-2.733 A-31.042 Z-0.653
X-2.759 A-30.547 Z-0.644
X-2.777 A-30.05 Z-0.636
X-2.789 A-29.58 Z-0.631
X-2.797 A-29.12 Z-0.628
X-2.807 A-28.088 Z-0.625
X-2.801 A-27.234 Z-0.623
X-2.792 A-26.648
X-2.784 A-26.278
X-2.771 A-25.908 Z-0.624
X-2.751 A-25.463 Z-0.625
X-2.723 A-25.01 Z-0.627
X-2.689 A-24.549 Z-0.633
X-2.667 A-24.295 Z-0.638
X-2.612 A-23.717 Z-0.654
X-2.564 A-23.3 Z-0.659
X-2.521 A-22.957 Z-0.662
X-2.495 A-22.776 Z-0.666
X-2.435 A-22.424 Z-0.683
X-2.382 A-22.151 Z-0.692
X-2.322 A-21.885 Z-0.698
X-2.256 A-21.631 Z-0.703
X-2.192 A-21.408 Z-0.711
X-2.136 A-21.236 Z-0.72
X-2.095 A-21.129 Z-0.725
X-2.012 A-20.95 Z-0.736
X-1.943 A-20.821 Z-0.747
X-1.877 A-20.719 Z-0.758
X-1.811 A-20.64 Z-0.766
X-1.742 A-20.581 Z-0.77
X-1.67 A-20.535 Z-0.771
X-1.617 A-20.515 Z-0.774
X-1.543 A-20.514 Z-0.785
X-1.488 A-20.531 Z-0.791
X-1.39 A-20.584 Z-0.799
X-1.314 A-20.649 Z-0.807
X-1.269 A-20.7 Z-0.811
X-1.227 A-20.765 Z-0.813
X-1.167 A-20.881 Z-0.814
X-1.111 A-21.013 Z-0.815
X-1.043 A-21.195 Z-0.821
X-0.993 A-21.381 Z-0.818
X-0.929 A-21.642 Z-0.819
X-0.882 A-21.869 Z-0.818
X-0.855 A-22.019 Z-0.815
X-0.808 A-22.316 Z-0.805
X-0.767 A-22.607 Z-0.795
X-0.742 A-22.82 Z-0.792
X-0.734 A-22.891
X-0.64 A-23.974 Z-0.779
X-0.585 A-24.661 Z-0.775
X-0.549 A-25.155
X-0.498 A-25.924 Z-0.777
X-0.443 A-26.849 Z-0.782
X-0.37 A-28.138 Z-0.787
X-0.294 A-29.449 Z-0.789
X-0.237 A-30.369 Z-0.787
X-0.174 A-31.287 Z-0.781
X-0.119 A-32.037 Z-0.774
X-0.091 A-32.387 Z-0.772
X-0.041 A-32.927 Z-0.779
X-0.01 A-33.225 Z-0.784
X0.024 A-33.487 Z-0.785
X0.072 A-33.821 Z-0.791
X0.112 A-34.057 Z-0.794
X0.147 A-34.234
X0.197 A-34.448 Z-0.791
X0.264 A-34.713 Z-0.784
X0.301 A-34.839 Z-0.785
X0.401 A-35.097 Z-0.774
X0.472 A-35.25 Z-0.769
X0.529 A-35.346 Z-0.763
X0.59 A-35.419 Z-0.755
X0.667 A-35.48 Z-0.747
X0.74 A-35.519 Z-0.742
X0.778 A-35.529 Z-0.738
X0.868 A-35.526 Z-0.728
X0.92 A-35.503 Z-0.726
X0.974 A-35.463 Z-0.725
X1.035 A-35.399 Z-0.72
X1.113 A-35.292 Z-0.71
X1.181 A-35.177 Z-0.702
X1.212 A-35.119 Z-0.699
X1.285 A-34.943 Z-0.688
X1.348 A-34.763 Z-0.683
X1.398 A-34.601 Z-0.68
X1.45 A-34.392 Z-0.675
X1.504 A-34.146 Z-0.669
X1.574 A-33.784 Z-0.662
X1.581 A-33.742 Z-0.661
X1.636 A-33.394 Z-0.649
X1.66 A-33.207 Z-0.648
X1.698 A-32.869
X1.724 A-32.608 Z-0.645
X1.766 A-32.126 Z-0.636
X1.801 A-31.674 Z-0.629
X1.826 A-31.267 Z-0.624
X1.849 A-30.824 Z-0.622
X1.865 A-30.393 Z-0.623
X1.878 A-29.915 Z-0.624
X1.885 A-29.38
X1.889 A-28.64 Z-0.625
X1.887 A-28.176 Z-0.623
X1.879 A-27.508
X1.867 A-26.928 Z-0.625
X1.854 A-26.506 Z-0.627
X1.834 A-26.075 Z-0.631
X1.807 A-25.64 Z-0.637
X1.777 A-25.233 Z-0.647
X1.736 A-24.743 Z-0.663
X1.697 A-24.336 Z-0.678
X1.629 A-23.739 Z-0.693
X1.602 A-23.549 Z-0.702
X1.569 A-23.348 Z-0.715
X1.528 A-23.121 Z-0.727
X1.477 A-22.872 Z-0.735
X1.415 A-22.607 Z-0.741
X1.339 A-22.311 Z-0.751
X1.264 A-22.1 Z-0.748
X1.179 A-21.892 Z-0.749
X1.158 A-21.846 Z-0.75
X1.063 A-22.097 Z-0.599
X0.96 A-22.386 Z-0.437
X0.831 A-22.775 Z-0.236
X0.679 A-23.259 Z0.001
X0.831 A-22.775 Z-0.236
X0.96 A-22.386 Z-0.437
X1.063 A-22.097 Z-0.599
X1.158 A-21.846 Z-0.75
X1.126 A-21.578 Z-0.681
X1.075 A-21.186 Z-0.574
X1.012 A-20.737 Z-0.443
X0.91 A-20.055 Z-0.233
X0.796 A-19.319 Z0.001
G0 Z5.
X-0.084 A34.585
G1 Z-0.776 F1000.
X-0.003 A34.613
X0.138 A34.686 Z-0.775
X0.253 A34.768 Z-0.776
X0.371 A34.878
X0.455 A34.977
X0.536 A35.09 Z-0.775
X0.6 A35.195 Z-0.774
X0.618 A35.227
X0.69 A35.367 Z-0.77
X0.762 A35.526 Z-0.766
X0.831 A35.693 Z-0.761
X0.961 A36.046 Z-0.749
X1.107 A36.488 Z-0.734
X1.276 A37.04 Z-0.714
X1.313 A37.18
X1.334 A37.268 Z-0.717
X1.366 A37.404 Z-0.721
X1.48 A38.066 Z-0.701
X1.553 A38.52 Z-0.688
X1.625 A39.012 Z-0.677
X1.687 A39.498 Z-0.669
X1.724 A39.837 Z-0.663
X1.754 A40.162 Z-0.659
X1.776 A40.435 Z-0.654
X1.807 A40.914 Z-0.648
X1.826 A41.293 Z-0.643
X1.847 A41.83 Z-0.637
X1.857 A42.141 Z-0.635
X1.875 A42.921 Z-0.63
X1.886 A43.593 Z-0.628
X1.883 A43.816
X1.862 A44.766 Z-0.632
X1.845 A45.317 Z-0.636
X1.822 A45.89 Z-0.643
X1.791 A46.454 Z-0.652
X1.768 A46.787 Z-0.658
X1.743 A47.093 Z-0.664
X1.7 A47.515 Z-0.672
X1.656 A47.882 Z-0.678
X1.616 A48.177 Z-0.683
X1.567 A48.505 Z-0.689
X1.508 A48.865 Z-0.695
X1.435 A49.279 Z-0.703
X1.305 A49.963 Z-0.717
X1.269 A50.124 Z-0.726
X1.255 A50.18 Z-0.73
X1.084 A50.712 Z-0.741
X0.95 A51.102 Z-0.75
X0.818 A51.453 Z-0.76
X0.694 A51.741 Z-0.768
X0.625 A51.878 Z-0.771
X0.537 A52.032 Z-0.774
X0.446 A52.161 Z-0.777
X0.377 A52.244
X0.242 A52.37
X0.147 A52.437
X0. A52.513
X-0.15 A52.566 Z-0.779
X-0.394 A52.622 Z-0.782
X-0.444 Z-0.781
X-0.729 A52.578
X-0.886 A52.529
X-1.034 A52.453 Z-0.78
X-1.113 A52.398 Z-0.779
X-1.219 A52.303 Z-0.777
X-1.344 A52.159 Z-0.773
X-1.439 A52.026 Z-0.771
X-1.555 A51.839 Z-0.772
X-1.655 A51.657 Z-0.775
X-1.741 A51.49 Z-0.781
X-1.767 A51.431 Z-0.782
X-1.897 A51.087 Z-0.772
X-2.012 A50.754 Z-0.763
X-2.081 A50.539 Z-0.755
X-2.143 A50.329 Z-0.745
X-2.21 A50.081 Z-0.73
X-2.246 A49.916 Z-0.725
X-2.289 A49.693 Z-0.721
X-2.369 A49.249 Z-0.709
X-2.458 A48.714 Z-0.694
X-2.509 A48.384 Z-0.686
X-2.574 A47.866 Z-0.666
X-2.617 A47.484 Z-0.656
X-2.638 A47.282 Z-0.652
X-2.676 A46.884 Z-0.647
X-2.706 A46.497 Z-0.644
X-2.728 A46.168 Z-0.642
X-2.746 A45.834 Z-0.64
X-2.76 A45.535 Z-0.638
X-2.778 A45.005 Z-0.634
X-2.792 A44.443 Z-0.629
X-2.807 A43.593 Z-0.624
X-2.806 A43.49 Z-0.623
X-2.8 A43.166 Z-0.624
X-2.783 A42.377 Z-0.628
X-2.767 A41.824 Z-0.633
X-2.744 A41.242 Z-0.64
X-2.714 A40.682 Z-0.649
X-2.691 A40.346 Z-0.655
X-2.666 A40.04 Z-0.661
X-2.638 A39.746 Z-0.668
X-2.593 A39.342 Z-0.676
X-2.542 A38.957 Z-0.682
X-2.488 A38.593 Z-0.689
X-2.432 A38.251 Z-0.695
X-2.355 A37.816 Z-0.704
X-2.232 A37.162 Z-0.717
X-2.196 A36.997 Z-0.726
X-2.18 A36.932 Z-0.731
X-2.059 A36.565 Z-0.738
X-1.932 A36.19 Z-0.746
X-1.792 A35.81 Z-0.754
X-1.666 A35.507 Z-0.762
X-1.591 A35.345 Z-0.766
X-1.515 A35.201 Z-0.77
X-1.435 A35.07 Z-0.772
X-1.356 A34.96 Z-0.774
X-1.263 A34.853 Z-0.776
X-1.124 A34.73
X-1.04 A34.675
X-0.879 A34.597 Z-0.777
X-0.709 A34.544 Z-0.778
X-0.471 A34.499 Z-0.781
X-0.446
X-0.164 A34.558 Z-0.777
X-0.084 A34.585 Z-0.776
G0 Z5.
X-0.326 A60.016
G1 Z-0.779 F1000.
X-0.187 A60.043 Z-0.777
X-0.025 A60.096 Z-0.775
X0.126 A60.171
X0.253 A60.26 Z-0.776
X0.358 A60.357
X0.437 A60.447
X0.517 A60.554 Z-0.775
X0.596 A60.681 Z-0.774
X0.674 A60.828 Z-0.771
X0.749 A60.987 Z-0.767
X0.819 A61.156 Z-0.762
X0.953 A61.515 Z-0.75
X1.078 A61.888 Z-0.737
X1.195 A62.261 Z-0.723
X1.263 A62.486 Z-0.715
X1.301 A62.622 Z-0.713
X1.366 A62.896 Z-0.721
X1.48 A63.558 Z-0.7
X1.553 A64.011 Z-0.688
X1.625 A64.506 Z-0.677
X1.688 A64.997 Z-0.669
X1.724 A65.329 Z-0.663
X1.754 A65.654 Z-0.659
X1.776 A65.927 Z-0.654
X1.807 A66.406 Z-0.648
X1.826 A66.785 Z-0.643
X1.847 A67.326 Z-0.637
X1.857 A67.634 Z-0.635
X1.875 A68.413 Z-0.63
X1.886 A69.085 Z-0.628
X1.883 A69.308
X1.862 A70.259 Z-0.632
X1.845 A70.809 Z-0.636
X1.822 A71.382 Z-0.643
X1.791 A71.946 Z-0.652
X1.768 A72.281 Z-0.658
X1.743 A72.584 Z-0.664
X1.7 A73.008 Z-0.672
X1.656 A73.38 Z-0.678
X1.616 A73.668 Z-0.683
X1.567 A73.997 Z-0.689
X1.508 A74.358 Z-0.695
X1.435 A74.772 Z-0.703
X1.305 A75.455 Z-0.717
X1.269 A75.616 Z-0.726
X1.255 A75.671 Z-0.73
X1.084 A76.204 Z-0.741
X0.95 A76.595 Z-0.75
X0.819 A76.945 Z-0.76
X0.692 A77.238 Z-0.768
X0.611 A77.397 Z-0.772
X0.509 A77.566 Z-0.776
X0.446 A77.653 Z-0.777
X0.313 A77.801
X0.223 A77.877
X0.073 A77.971
X-0.072 A78.034 Z-0.778
X-0.282 A78.091 Z-0.78
X-0.426 A78.115 Z-0.781
X-0.511 A78.106
X-0.728 A78.07
X-0.886 A78.021
X-1.034 A77.945 Z-0.78
X-1.113 A77.89 Z-0.779
X-1.219 A77.795 Z-0.777
X-1.341 A77.655 Z-0.773
X-1.435 A77.524 Z-0.771
X-1.555 A77.331 Z-0.772
X-1.655 A77.149 Z-0.775
X-1.742 A76.981 Z-0.781
X-1.767 A76.923 Z-0.782
X-1.877 A76.634 Z-0.773
X-2.001 A76.279 Z-0.764
X-2.081 A76.03 Z-0.755
X-2.143 A75.822 Z-0.745
X-2.21 A75.573 Z-0.73
X-2.246 A75.408 Z-0.725
X-2.289 A75.185 Z-0.721
X-2.369 A74.741 Z-0.709
X-2.458 A74.206 Z-0.694
X-2.509 A73.875 Z-0.686
X-2.575 A73.349 Z-0.665
X-2.631 A72.843 Z-0.653
X-2.665 A72.498 Z-0.648
X-2.692 A72.181 Z-0.645
X-2.719 A71.8 Z-0.643
X-2.745 A71.35 Z-0.64
X-2.76 A71.027 Z-0.638
X-2.778 A70.497 Z-0.634
X-2.792 A69.935 Z-0.629
X-2.807 A69.085 Z-0.624
X-2.806 A68.982 Z-0.623
X-2.8 A68.658 Z-0.624
X-2.783 A67.87 Z-0.628
X-2.767 A67.316 Z-0.633
X-2.744 A66.735 Z-0.64
X-2.714 A66.174 Z-0.649
X-2.691 A65.838 Z-0.655
X-2.666 A65.533 Z-0.661
X-2.638 A65.239 Z-0.667
X-2.593 A64.835 Z-0.676
X-2.542 A64.449 Z-0.682
X-2.488 A64.085 Z-0.689
X-2.432 A63.743 Z-0.695
X-2.355 A63.308 Z-0.704
X-2.232 A62.654 Z-0.717
X-2.196 A62.489 Z-0.726
X-2.18 A62.424 Z-0.731
X-2.004 A61.891 Z-0.741
X-1.88 A61.539 Z-0.749
X-1.749 A61.195 Z-0.757
X-1.656 A60.977 Z-0.763
X-1.532 A60.725 Z-0.769
X-1.463 A60.604 Z-0.772
X-1.398 A60.508 Z-0.774
X-1.294 A60.378 Z-0.775
X-1.2 A60.284
X-1.056 A60.177 Z-0.776
X-0.903 A60.099
X-0.755 A60.048 Z-0.777
X-0.472 A59.991 Z-0.781
X-0.456 A59.99
X-0.326 A60.016 Z-0.779
G0 Z5.
X-1.494 A-41.611
G1 Z0.001 F1000.
X-1.58 A-42.242 Z-0.177
X-1.703 A-43.153 Z-0.429
X-1.775 A-43.716 Z-0.579
X-1.837 A-44.229 Z-0.711
X-1.868 A-44.496 Z-0.775
X-1.683 A-44.966 Z-0.48
X-1.44 A-45.615 Z-0.092
X-1.382 A-45.774 Z0.001
X-1.44 A-45.615 Z-0.092
X-1.683 A-44.966 Z-0.48
X-1.868 A-44.496 Z-0.775
X-1.941 A-44.678 Z-0.771
X-2.027 A-44.932 Z-0.763
X-2.109 A-45.21 Z-0.753
X-2.171 A-45.442 Z-0.746
X-2.252 A-45.781 Z-0.737
X-2.335 A-46.157 Z-0.731
X-2.39 A-46.419 Z-0.728
X-2.498 A-47.072 Z-0.692
X-2.524 A-47.258 Z-0.687
X-2.551 A-47.473 Z-0.684
X-2.61 A-47.966 Z-0.677
X-2.649 A-48.331 Z-0.671
X-2.689 A-48.757 Z-0.663
X-2.722 A-49.189 Z-0.653
X-2.746 A-49.591 Z-0.644
X-2.765 A-50.018 Z-0.637
X-2.78 A-50.45 Z-0.631
X-2.794 A-51.044 Z-0.627
X-2.805 A-51.842 Z-0.624
X-2.806 A-52.141
X-2.801 A-52.428 Z-0.625
X-2.786 A-53.19 Z-0.629
X-2.77 A-53.796 Z-0.634
X-2.753 A-54.287 Z-0.64
X-2.727 A-54.832 Z-0.649
X-2.706 A-55.165 Z-0.656
X-2.685 A-55.466 Z-0.663
X-2.645 A-55.916 Z-0.674
X-2.608 A-56.271 Z-0.682
X-2.573 A-56.558 Z-0.688
X-2.523 A-56.925 Z-0.695
X-2.474 A-57.251 Z-0.7
X-2.398 A-57.713 Z-0.708
X-2.287 A-58.344 Z-0.716
X-2.254 A-58.504 Z-0.723
X-2.193 A-58.768 Z-0.742
X-2.169 A-58.873 Z-0.749
X-2.037 A-59.299 Z-0.75
X-1.922 A-59.65 Z-0.753
X-1.797 A-59.998 Z-0.758
X-1.672 A-60.305 Z-0.765
X-1.595 A-60.468 Z-0.77
X-1.524 A-60.602 Z-0.774
X-1.453 A-60.718 Z-0.778
X-1.35 A-60.858 Z-0.782
X-1.243 A-60.974 Z-0.783
X-1.142 A-61.06
X-1.041 A-61.128
X-0.91 A-61.199 Z-0.781
X-0.689 A-61.283 Z-0.777
X-0.641 A-61.285 Z-0.781
X-0.588 A-61.272 Z-0.79
X-0.536 A-61.247 Z-0.805
X-0.482 A-61.2 Z-0.823
X-0.433 A-61.139 Z-0.842
X-0.38 A-61.057 Z-0.869
X-0.325 A-60.957 Z-0.902
X-0.296 A-60.898 Z-0.921
X-0.26 A-60.947 Z-0.899
X-0.204 A-61.013 Z-0.868
X-0.152 A-61.059 Z-0.844
X-0.1 A-61.091 Z-0.825
X-0.05 A-61.108 Z-0.81
X0. A-61.113 Z-0.8
X0.049 A-61.103 Z-0.793
X0.149 A-61.048 Z-0.79
X0.307 A-60.929 Z-0.783
X0.42 A-60.816 Z-0.774
X0.478 A-60.747 Z-0.769
X0.578 A-60.606 Z-0.757
X0.659 A-60.468 Z-0.746
X0.777 A-60.233 Z-0.731
X0.845 A-60.077 Z-0.724
X0.956 A-59.79 Z-0.716
X1.064 A-59.477 Z-0.712
X1.12 A-59.301
X1.248 A-58.881 Z-0.717
X1.327 A-58.53 Z-0.698
X1.382 A-58.282 Z-0.685
X1.415 A-58.117 Z-0.681
X1.521 A-57.503 Z-0.678
X1.583 A-57.114 Z-0.675
X1.638 A-56.728 Z-0.671
X1.673 A-56.462 Z-0.668
X1.703 A-56.211 Z-0.664
X1.728 A-55.973 Z-0.659
X1.757 A-55.657 Z-0.653
X1.791 A-55.201 Z-0.644
X1.811 A-54.878 Z-0.638
X1.837 A-54.335 Z-0.631
X1.851 A-53.951 Z-0.628
X1.869 A-53.313 Z-0.625
X1.888 A-52.376 Z-0.624
A-52.215 Z-0.623
X1.876 A-51.575
X1.856 A-50.805 Z-0.626
X1.841 A-50.356 Z-0.629
X1.824 A-49.972 Z-0.632
X1.807 A-49.634 Z-0.635
X1.778 A-49.193 Z-0.641
X1.745 A-48.794 Z-0.645
X1.716 A-48.498 Z-0.649
X1.707 A-48.415 Z-0.65
X1.652 A-47.975 Z-0.654
X1.61 A-47.683 Z-0.657
X1.539 A-47.239 Z-0.662
X1.455 A-46.767 Z-0.669
X1.302 A-45.986 Z-0.682
X1.282 A-45.887 Z-0.685
X1.267 A-45.829
X1.193 A-45.6 Z-0.687
X1.073 A-45.245 Z-0.693
X0.953 A-44.916 Z-0.701
X0.849 A-44.659 Z-0.71
X0.746 A-44.432 Z-0.722
X0.678 A-44.303 Z-0.73
X0.585 A-44.15 Z-0.741
X0.528 A-44.069 Z-0.747
X0.42 A-43.943 Z-0.757
X0.277 A-43.816 Z-0.766
X0.135 A-43.723 Z-0.771
X0.067 A-43.687 Z-0.772
X0.013 A-43.674 Z-0.777
X-0.036 A-43.675 Z-0.786
X-0.087 A-43.692 Z-0.799
X-0.143 A-43.726 Z-0.819
X-0.196 A-43.773 Z-0.843
X-0.373 A-42.919 Z-0.537
X-0.506 A-42.296 Z-0.308
X-0.684 A-41.499 Z0.001
X-0.506 A-42.296 Z-0.308
X-0.373 A-42.919 Z-0.537
X-0.196 A-43.773 Z-0.843
X-0.22 A-43.968 Z-0.802
X-0.242 A-44.164 Z-0.765
X-0.26 A-44.36 Z-0.732
X-0.277 A-44.555 Z-0.704
X-0.291 A-44.751 Z-0.68
X-0.302 A-44.947 Z-0.66
X-0.311 A-45.142 Z-0.645
X-0.317 A-45.338 Z-0.634
X-0.321 A-45.534 Z-0.627
X-0.322 A-59.001 Z-0.625
A-59.091
X-0.319 A-59.309 Z-0.631
X-0.317 A-59.476 Z-0.641
X-0.314 A-59.643 Z-0.658
X-0.312 A-59.81 Z-0.68
X-0.308 A-60.061 Z-0.722
X-0.305 A-60.312 Z-0.774
X-0.301 A-60.563 Z-0.833
X-0.296 A-60.898 Z-0.921
G0 Z5.
X3.096 A99.144
G1 Z0.001 F1000.
X3.535 A97.13 Z-0.76
X3.096 A95.116 Z0.001
X3.535 A97.13 Z-0.76
X3.667
X4.106 A95.116 Z0.001
X3.667 A97.13 Z-0.76
X4.106 A99.144 Z0.001
G0 Z5.

M9
G28 G91 Z0.
G28 X0. Y0.
M30
